;FLAVOR:Marlin
;TIME:511
;Filament used: 0.745553m
;Layer height: 0.15
;MINX:151.975
;MINY:139.373
;MINZ:0.15
;MAXX:198.016
;MAXY:181.316
;MAXZ:3.75
;TARGET_MACHINE.NAME:ELEGOO NEPTUNE 4 Plus
;Generated with Cura_SteamEngine 5.10.2
;ELEGOO NEPTUNE 4 PLUS
M220 S100 ;Set the feed speed to 100%
M221 S100 ;Set the flow rate to 100%
M104 S140 ;Start heating extruder
M190 S60 ;Wait for the bed to reach print temp
G90
G28 ;home
G1 Z10 F300
G1 X115 Y0 F6000
G1 Z0 F300
M109 S210 ;Wait for extruder to reach print temp
G92 E0 ;Reset Extruder
G1 X115 Y0 Z0.4 F300 ;Move to start position
G1 X215 E30 F400 ;Draw the first line
G1 Z0.6 F120.0 ;Move to side a little
G1 X210 F3000
G92 E0 ;Reset Extruder
M82 ;absolute extrusion mode
G92 E0
G92 E0
G1 F2700 E-0.5
;LAYER_COUNT:25
;LAYER:0
M107
M204 S500
G0 F7200 X153.848 Y140.517 Z0.15
;TYPE:SKIRT
G1 F2700 E0
G1 F3600 X154.916 Y139.891 E0.04053
G1 X155.608 Y139.608 E0.06501
G1 X156.889 Y139.373 E0.10765
G1 X159.249 Y139.501 E0.18503
G1 X160.942 Y139.748 E0.24105
G1 X162.756 Y140.176 E0.30207
G1 X164.728 Y140.843 E0.37023
G1 X166.543 Y141.657 E0.43535
G1 X168.273 Y142.639 E0.50048
G1 X169.884 Y143.764 E0.56481
G1 X171.037 Y144.723 E0.61392
G1 X171.976 Y145.66 E0.65735
G1 X171.976 Y144.154 E0.70665
G1 X172.259 Y142.744 E0.75374
G1 X172.942 Y141.505 E0.80006
G1 X173.849 Y140.517 E0.84397
G1 X174.917 Y139.891 E0.8845
G1 X175.609 Y139.608 E0.90898
G1 X176.89 Y139.373 E0.95162
G1 X179.249 Y139.501 E1.02897
G1 X180.942 Y139.748 E1.08498
G1 X182.756 Y140.176 E1.14601
G1 X184.728 Y140.843 E1.21416
G1 X186.543 Y141.657 E1.27929
G1 X188.273 Y142.639 E1.34442
G1 X189.884 Y143.764 E1.40875
G1 X191.037 Y144.723 E1.45785
G1 X192.686 Y146.372 E1.5342
G1 X193.666 Y147.551 E1.5844
G1 X194.914 Y149.367 E1.65654
G1 X195.869 Y151.098 E1.72127
G1 X196.656 Y152.907 E1.78586
G1 X197.178 Y154.466 E1.83969
G1 X197.706 Y156.732 E1.91586
G1 X197.912 Y158.217 E1.96495
G1 X198.016 Y160.606 E2.04324
G1 X197.909 Y162.532 E2.1064
G1 X197.679 Y164.127 E2.15916
G1 X197.204 Y166.133 E2.22665
G1 X196.528 Y168.113 E2.29515
G1 X195.72 Y169.903 E2.35945
G1 X194.99 Y171.213 E2.40855
G1 X193.666 Y173.143 E2.48518
G1 X192.686 Y174.322 E2.53537
G1 X191.037 Y175.971 E2.61172
G1 X189.858 Y176.951 E2.66192
G1 X187.913 Y178.28 E2.73905
G1 X186.442 Y179.092 E2.79406
G1 X184.503 Y179.941 E2.86336
G1 X182.945 Y180.463 E2.91716
G1 X180.678 Y180.991 E2.99337
G1 X179.192 Y181.196 E3.04248
G1 X176.859 Y181.316 E3.11896
G1 X175.529 Y181.089 E3.16314
G1 X174.345 Y180.504 E3.20638
G1 X173.411 Y179.786 E3.24495
G1 X173.291 Y179.656 E3.25074
G1 X172.543 Y178.497 E3.2959
G1 X172.271 Y177.901 E3.31735
G1 X171.976 Y176.651 E3.3594
G1 X171.976 Y175.034 E3.41234
G1 X171.037 Y175.971 E3.45577
G1 X169.858 Y176.951 E3.50597
G1 X167.913 Y178.28 E3.58309
G1 X166.442 Y179.092 E3.63811
G1 X164.503 Y179.941 E3.70741
G1 X162.945 Y180.463 E3.76121
G1 X160.678 Y180.991 E3.83741
G1 X159.192 Y181.196 E3.88653
G1 X156.858 Y181.316 E3.96304
G1 X155.528 Y181.089 E4.00722
G1 X154.344 Y180.504 E4.05046
G1 X153.41 Y179.786 E4.08903
G1 X153.29 Y179.656 E4.09482
G1 X152.542 Y178.497 E4.13998
G1 X152.27 Y177.901 E4.16143
G1 X151.975 Y176.651 E4.20348
G1 X151.975 Y169.554 E4.43584
G1 X152.258 Y168.142 E4.48299
G1 X152.936 Y166.915 E4.52889
G1 X153.769 Y165.987 E4.56972
G1 X154.904 Y165.252 E4.61399
G1 X155.23 Y165.112 E4.6256
G1 X156.477 Y164.813 E4.66759
G1 X157.608 Y164.745 E4.70468
G1 X158.099 Y164.654 E4.72103
G1 X158.633 Y164.486 E4.73936
G1 X159.133 Y164.263 E4.75729
G1 X159.577 Y163.995 E4.77427
G1 X160.01 Y163.655 E4.79229
G1 X160.37 Y163.295 E4.80896
G1 X160.704 Y162.867 E4.82673
G1 X160.972 Y162.423 E4.84371
G1 X161.21 Y161.897 E4.86262
G1 X161.375 Y161.374 E4.88057
G1 X161.46 Y160.911 E4.89598
G1 X161.491 Y160.34 E4.91471
G1 X161.46 Y159.793 E4.93264
G1 X161.37 Y159.308 E4.94879
G1 X161.202 Y158.772 E4.96719
G1 X160.993 Y158.309 E4.98382
G1 X160.696 Y157.817 E5.00263
G1 X160.389 Y157.423 E5.01899
G1 X159.985 Y157.019 E5.03769
G1 X159.577 Y156.699 E5.05467
G1 X159.133 Y156.431 E5.07165
G1 X158.633 Y156.208 E5.08957
G1 X158.099 Y156.04 E5.1079
G1 X157.609 Y155.949 E5.12422
G1 X156.453 Y155.881 E5.16213
G1 X155.034 Y155.505 E5.21019
G1 X153.915 Y154.795 E5.25358
G1 X153.058 Y154.001 E5.29183
G1 X152.278 Y152.626 E5.34359
G1 X152.218 Y152.46 E5.34937
G1 X151.975 Y151.115 E5.39412
G1 X151.975 Y144.154 E5.62202
G1 X152.258 Y142.744 E5.66911
G1 X152.941 Y141.505 E5.71543
G1 X153.848 Y140.517 E5.75934
G0 F7200 X154.181 Y140.931
G1 F3600 X155.182 Y140.344 E5.79733
G1 X155.756 Y140.114 E5.81758
G1 X156.922 Y139.9 E5.85639
G1 X159.173 Y140.021 E5.9302
G1 X160.866 Y140.268 E5.98621
G1 X162.635 Y140.687 E6.04573
G1 X164.514 Y141.322 E6.11067
G1 X166.284 Y142.114 E6.17416
G1 X167.973 Y143.07 E6.2377
G1 X169.548 Y144.168 E6.30056
G1 X170.701 Y145.127 E6.34966
G1 X172.282 Y146.708 E6.42286
G1 X172.501 Y146.971 E6.43407
G1 X172.501 Y144.207 E6.52456
G1 X172.758 Y142.926 E6.56734
G1 X173.371 Y141.814 E6.60891
G1 X174.182 Y140.931 E6.64817
G1 X175.183 Y140.344 E6.68616
G1 X175.757 Y140.114 E6.7064
G1 X176.923 Y139.9 E6.74522
G1 X179.173 Y140.021 E6.81899
G1 X180.866 Y140.268 E6.87501
G1 X182.635 Y140.687 E6.93453
G1 X184.514 Y141.322 E6.99946
G1 X186.284 Y142.114 E7.06295
G1 X187.973 Y143.07 E7.12649
G1 X189.548 Y144.168 E7.18935
G1 X190.701 Y145.127 E7.23845
G1 X192.282 Y146.708 E7.31166
G1 X193.262 Y147.887 E7.36185
G1 X194.454 Y149.621 E7.43075
G1 X195.409 Y151.352 E7.49547
G1 X196.158 Y153.074 E7.55695
G1 X196.68 Y154.633 E7.61078
G1 X197.186 Y156.804 E7.68377
G1 X197.392 Y158.289 E7.73285
G1 X197.492 Y160.577 E7.80783
G1 X197.389 Y162.457 E7.86948
G1 X197.159 Y164.052 E7.92224
G1 X196.707 Y165.963 E7.98653
G1 X196.031 Y167.943 E8.05503
G1 X195.261 Y169.647 E8.11625
G1 X194.531 Y170.957 E8.16535
G1 X193.262 Y172.807 E8.2388
G1 X192.282 Y173.986 E8.289
G1 X190.701 Y175.567 E8.3622
G1 X189.522 Y176.547 E8.4124
G1 X187.659 Y177.82 E8.48627
G1 X186.188 Y178.632 E8.54128
G1 X184.336 Y179.443 E8.60748
G1 X182.778 Y179.965 E8.66127
G1 X180.606 Y180.471 E8.73429
G1 X179.12 Y180.676 E8.7834
G1 X176.893 Y180.789 E8.85641
G1 X175.692 Y180.584 E8.8963
G1 X174.623 Y180.056 E8.93534
G1 X173.731 Y179.37 E8.97218
G1 X173.021 Y178.279 E9.0148
G1 X172.77 Y177.729 E9.03459
G1 X172.501 Y176.589 E9.07294
G1 X172.501 Y173.723 E9.16677
G1 X172.282 Y173.986 E9.17798
G1 X170.701 Y175.567 E9.25118
G1 X169.522 Y176.547 E9.30138
G1 X167.659 Y177.82 E9.37525
G1 X166.188 Y178.632 E9.43026
G1 X164.336 Y179.443 E9.49646
G1 X162.778 Y179.965 E9.55025
G1 X160.606 Y180.471 E9.62327
G1 X159.12 Y180.676 E9.67238
G1 X156.892 Y180.789 E9.74542
G1 X155.691 Y180.584 E9.78531
G1 X154.622 Y180.056 E9.82435
G1 X153.73 Y179.37 E9.86119
G1 X153.02 Y178.279 E9.90381
G1 X152.769 Y177.729 E9.9236
G1 X152.5 Y176.589 E9.96195
G1 X152.5 Y169.607 E10.19054
G1 X152.757 Y168.323 E10.23342
G1 X153.366 Y167.222 E10.27461
G1 X154.112 Y166.39 E10.3112
G1 X155.189 Y165.693 E10.3532
G1 X155.352 Y165.623 E10.35901
G1 X156.557 Y165.334 E10.39958
G1 X157.671 Y165.267 E10.43612
G1 X158.227 Y165.164 E10.45463
G1 X158.823 Y164.977 E10.47508
G1 X159.373 Y164.732 E10.4948
G1 X159.876 Y164.428 E10.51404
G1 X160.357 Y164.05 E10.53407
G1 X160.761 Y163.646 E10.55277
G1 X161.142 Y163.159 E10.57302
G1 X161.435 Y162.673 E10.5916
G1 X161.704 Y162.078 E10.61298
G1 X161.884 Y161.506 E10.63261
G1 X161.982 Y160.972 E10.65038
G1 X162.017 Y160.34 E10.67111
G1 X161.982 Y159.73 E10.69111
G1 X161.88 Y159.18 E10.70943
G1 X161.694 Y158.585 E10.72984
G1 X161.457 Y158.062 E10.74864
G1 X161.131 Y157.52 E10.76934
G1 X160.785 Y157.077 E10.78775
G1 X160.332 Y156.624 E10.80872
G1 X159.876 Y156.266 E10.8277
G1 X159.373 Y155.962 E10.84695
G1 X158.823 Y155.717 E10.86666
G1 X158.227 Y155.53 E10.88711
G1 X157.672 Y155.427 E10.90559
G1 X156.534 Y155.36 E10.94291
G1 X155.247 Y155.019 E10.98651
G1 X154.238 Y154.379 E11.02563
G1 X153.475 Y153.672 E11.05968
G1 X152.735 Y152.367 E11.1088
G1 X152.5 Y151.066 E11.15208
G1 X152.5 Y144.207 E11.37665
G1 X152.757 Y142.926 E11.41943
G1 X153.37 Y141.814 E11.461
G1 X154.181 Y140.931 E11.50025
G0 F7200 X154.516 Y141.343
G1 F3600 X155.377 Y140.831 E11.53305
G1 X155.902 Y140.621 E11.55156
G1 X156.955 Y140.427 E11.58662
G1 X159.097 Y140.541 E11.65685
G1 X160.79 Y140.788 E11.71287
G1 X162.513 Y141.198 E11.77085
G1 X164.345 Y141.819 E11.83418
G1 X166.026 Y142.571 E11.89448
G1 X167.673 Y143.501 E11.9564
G1 X169.212 Y144.572 E12.01779
G1 X170.365 Y145.531 E12.06689
G1 X171.878 Y147.044 E12.13695
G1 X173.026 Y148.425 E12.19574
G1 X173.026 Y144.26 E12.33211
G1 X173.257 Y143.108 E12.37058
G1 X173.8 Y142.123 E12.4074
G1 X174.517 Y141.343 E12.44209
G1 X175.378 Y140.831 E12.47489
G1 X175.903 Y140.621 E12.4934
G1 X176.956 Y140.427 E12.52845
G1 X179.097 Y140.541 E12.59865
G1 X180.79 Y140.788 E12.65467
G1 X182.513 Y141.198 E12.71265
G1 X184.345 Y141.819 E12.77599
G1 X186.026 Y142.571 E12.83628
G1 X187.673 Y143.501 E12.89821
G1 X189.212 Y144.572 E12.95959
G1 X190.365 Y145.531 E13.00869
G1 X191.878 Y147.044 E13.07875
G1 X192.858 Y148.223 E13.12894
G1 X193.994 Y149.875 E13.19459
G1 X194.949 Y151.606 E13.25931
G1 X195.66 Y153.241 E13.31769
G1 X196.182 Y154.8 E13.37151
G1 X196.666 Y156.876 E13.4413
G1 X196.872 Y158.361 E13.49039
G1 X196.968 Y160.549 E13.5621
G1 X196.869 Y162.382 E13.6222
G1 X196.639 Y163.977 E13.67496
G1 X196.21 Y165.794 E13.73608
G1 X195.552 Y167.727 E13.80294
G1 X194.802 Y169.391 E13.86269
G1 X194.072 Y170.701 E13.91179
G1 X192.858 Y172.471 E13.98206
G1 X191.878 Y173.65 E14.03226
G1 X190.365 Y175.163 E14.10231
G1 X189.186 Y176.143 E14.15251
G1 X187.405 Y177.36 E14.22313
G1 X185.934 Y178.172 E14.27815
G1 X184.169 Y178.945 E14.34123
G1 X182.611 Y179.467 E14.39503
G1 X180.534 Y179.951 E14.46485
G1 X179.048 Y180.156 E14.51396
G1 X176.928 Y180.262 E14.58346
G1 X175.855 Y180.079 E14.6191
G1 X174.901 Y179.608 E14.65393
G1 X174.122 Y179.009 E14.68611
G1 X173.499 Y178.061 E14.72325
G1 X173.269 Y177.557 E14.74138
G1 X173.026 Y176.527 E14.77603
G1 X173.026 Y172.269 E14.91544
G1 X171.878 Y173.65 E14.97424
G1 X170.365 Y175.163 E15.04429
G1 X169.186 Y176.143 E15.09449
G1 X167.405 Y177.36 E15.16511
G1 X165.934 Y178.172 E15.22012
G1 X164.169 Y178.945 E15.28321
G1 X162.611 Y179.467 E15.33701
G1 X160.534 Y179.951 E15.40683
G1 X159.048 Y180.156 E15.45594
G1 X156.927 Y180.262 E15.52547
G1 X155.854 Y180.079 E15.56111
G1 X154.9 Y179.608 E15.59594
G1 X154.121 Y179.009 E15.62812
G1 X153.498 Y178.061 E15.66526
G1 X153.268 Y177.557 E15.6834
G1 X153.025 Y176.527 E15.71804
G1 X153.025 Y169.66 E15.94287
G1 X153.256 Y168.504 E15.98147
G1 X153.794 Y167.531 E16.01787
G1 X154.457 Y166.792 E16.05038
G1 X155.474 Y166.134 E16.09003
G1 X156.637 Y165.855 E16.12919
G1 X157.734 Y165.789 E16.16517
G1 X158.355 Y165.674 E16.18585
G1 X159.006 Y165.47 E16.20819
G1 X159.615 Y165.198 E16.23002
G1 X160.178 Y164.858 E16.25156
G1 X160.704 Y164.445 E16.27345
G1 X161.156 Y163.993 E16.29438
G1 X161.577 Y163.455 E16.31675
G1 X161.898 Y162.923 E16.33709
G1 X162.198 Y162.259 E16.36095
G1 X162.393 Y161.639 E16.38223
G1 X162.504 Y161.031 E16.40246
G1 X162.543 Y160.34 E16.42512
G1 X162.504 Y159.667 E16.44719
G1 X162.39 Y159.052 E16.46767
G1 X162.187 Y158.402 E16.48997
G1 X161.92 Y157.812 E16.51117
G1 X161.566 Y157.224 E16.53364
G1 X161.176 Y156.726 E16.55435
G1 X160.684 Y156.233 E16.57715
G1 X160.178 Y155.836 E16.59821
G1 X159.615 Y155.496 E16.61974
G1 X159.006 Y155.224 E16.64158
G1 X158.355 Y155.02 E16.66392
G1 X157.735 Y154.905 E16.68456
G1 X156.615 Y154.839 E16.72129
G1 X155.46 Y154.533 E16.76041
G1 X154.561 Y153.963 E16.79527
G1 X153.892 Y153.343 E16.82513
G1 X153.236 Y152.186 E16.86867
G1 X153.025 Y151.017 E16.90757
G1 X153.025 Y144.26 E17.12879
G1 X153.256 Y143.108 E17.16726
G1 X153.799 Y142.123 E17.20409
G1 X154.516 Y141.343 E17.23877
G0 F7200 X154.85 Y141.755
G1 F3600 X155.583 Y141.314 E17.26678
G1 X155.997 Y141.137 E17.28152
G1 X156.989 Y140.954 E17.31455
G1 X159.021 Y141.061 E17.38117
G1 X160.714 Y141.308 E17.43719
G1 X162.344 Y141.695 E17.49204
G1 X164.176 Y142.316 E17.55537
G1 X165.768 Y143.028 E17.61247
G1 X167.373 Y143.932 E17.67278
G1 X168.876 Y144.976 E17.73269
G1 X170.029 Y145.935 E17.78179
G1 X171.474 Y147.38 E17.8487
G1 X172.454 Y148.559 E17.8989
G1 X173.551 Y150.155 E17.9623
G1 X173.551 Y144.313 E18.15357
G1 X173.756 Y143.29 E18.18773
G1 X174.229 Y142.432 E18.21981
G1 X174.851 Y141.755 E18.24991
G1 X175.584 Y141.314 E18.27792
G1 X175.998 Y141.137 E18.29266
G1 X176.99 Y140.954 E18.32568
G1 X179.021 Y141.061 E18.39227
G1 X180.714 Y141.308 E18.44829
G1 X182.344 Y141.695 E18.50314
G1 X184.176 Y142.316 E18.56647
G1 X185.768 Y143.028 E18.62357
G1 X187.373 Y143.932 E18.68388
G1 X188.876 Y144.976 E18.7438
G1 X190.029 Y145.935 E18.7929
G1 X191.474 Y147.38 E18.8598
G1 X192.454 Y148.559 E18.91
G1 X193.535 Y150.129 E18.97241
G1 X194.468 Y151.816 E19.03552
G1 X195.162 Y153.408 E19.09238
G1 X195.684 Y154.967 E19.14621
G1 X196.146 Y156.948 E19.21281
G1 X196.352 Y158.433 E19.2619
G1 X196.444 Y160.521 E19.33032
G1 X196.349 Y162.307 E19.38888
G1 X196.119 Y163.902 E19.44164
G1 X195.713 Y165.625 E19.4996
G1 X195.073 Y167.512 E19.56484
G1 X194.343 Y169.135 E19.6231
G1 X193.613 Y170.445 E19.6722
G1 X192.454 Y172.135 E19.7393
G1 X191.474 Y173.314 E19.78949
G1 X190.029 Y174.759 E19.8564
G1 X188.85 Y175.739 E19.90659
G1 X187.151 Y176.9 E19.97396
G1 X185.68 Y177.712 E20.02898
G1 X184.002 Y178.447 E20.08895
G1 X182.444 Y178.969 E20.14275
G1 X180.462 Y179.431 E20.20938
G1 X178.976 Y179.636 E20.25849
G1 X176.963 Y179.735 E20.32448
G1 X176.019 Y179.574 E20.35583
G1 X175.177 Y179.158 E20.38658
G1 X174.512 Y178.647 E20.41404
G1 X173.977 Y177.843 E20.44566
G1 X173.768 Y177.385 E20.46214
G1 X173.551 Y176.465 E20.49309
G1 X173.551 Y170.539 E20.68711
G1 X172.454 Y172.135 E20.75052
G1 X171.474 Y173.314 E20.80071
G1 X170.029 Y174.759 E20.86762
G1 X168.85 Y175.739 E20.91781
G1 X167.151 Y176.9 E20.98519
G1 X165.68 Y177.712 E21.0402
G1 X164.002 Y178.447 E21.10017
G1 X162.444 Y178.969 E21.15397
G1 X160.462 Y179.431 E21.2206
G1 X158.976 Y179.636 E21.26972
G1 X156.962 Y179.735 E21.33573
G1 X156.018 Y179.574 E21.36709
G1 X155.176 Y179.158 E21.39784
G1 X154.511 Y178.647 E21.42529
G1 X153.976 Y177.843 E21.45691
G1 X153.767 Y177.385 E21.4734
G1 X153.55 Y176.465 E21.50434
G1 X153.55 Y169.713 E21.72541
G1 X153.755 Y168.688 E21.75963
G1 X154.225 Y167.837 E21.79146
G1 X154.802 Y167.194 E21.81974
G1 X155.683 Y166.624 E21.8541
G1 X156.717 Y166.376 E21.88891
G1 X157.797 Y166.311 E21.92434
G1 X158.483 Y166.184 E21.94718
G1 X159.189 Y165.963 E21.9714
G1 X159.857 Y165.664 E21.99536
G1 X160.48 Y165.288 E22.01919
G1 X161.051 Y164.84 E22.04295
G1 X161.552 Y164.339 E22.06614
G1 X162.009 Y163.754 E22.09045
G1 X162.366 Y163.164 E22.11303
G1 X162.688 Y162.45 E22.13867
G1 X162.902 Y161.769 E22.16204
G1 X163.026 Y161.09 E22.18464
G1 X163.069 Y160.34 E22.20924
G1 X163.026 Y159.606 E22.23331
G1 X162.9 Y158.923 E22.25605
G1 X162.68 Y158.219 E22.2802
G1 X162.383 Y157.562 E22.3038
G1 X162.001 Y156.928 E22.32804
G1 X161.567 Y156.374 E22.35108
G1 X161.036 Y155.842 E22.37569
G1 X160.48 Y155.406 E22.39882
G1 X159.857 Y155.03 E22.42265
G1 X159.189 Y154.731 E22.44661
G1 X158.483 Y154.51 E22.47083
G1 X157.798 Y154.383 E22.49364
G1 X156.696 Y154.318 E22.52978
G1 X155.673 Y154.047 E22.56443
G1 X154.884 Y153.547 E22.59501
G1 X154.309 Y153.014 E22.62068
G1 X153.737 Y152.005 E22.65866
G1 X153.55 Y150.968 E22.69315
G1 X153.55 Y144.313 E22.91104
G1 X153.755 Y143.29 E22.9452
G1 X154.228 Y142.432 E22.97728
G1 X154.85 Y141.755 E23.00738
G1 F2700 E22.50738
G0 F7200 X163.037 Y144.924
G0 X164.435 Y145.541
G0 X165.771 Y146.285
G0 X166.791 Y146.985
G0 X177.527 Y155.944
G1 F2700 E23.00738
G1 F3600 X177.698 Y156.686 E23.03231
G1 X177.912 Y158.217 E23.08292
G1 X178.016 Y160.606 E23.16121
G1 X177.909 Y162.532 E23.22437
G1 X177.679 Y164.127 E23.27713
G1 X177.535 Y164.749 E23.29803
G1 X178.099 Y164.654 E23.31676
G1 X178.633 Y164.486 E23.33509
G1 X179.133 Y164.263 E23.35301
G1 X179.577 Y163.995 E23.36999
G1 X180.01 Y163.655 E23.38802
G1 X180.37 Y163.295 E23.40468
G1 X180.704 Y162.867 E23.42246
G1 X180.972 Y162.423 E23.43944
G1 X181.21 Y161.897 E23.45834
