;FLAVOR:Marlin
;TIME:1856
;Filament used: 0.941556m
;Layer height: 0.15
;MINX:153.015
;MINY:148.613
;MINZ:0.15
;MAXX:176.983
;MAXY:181.287
;MAXZ:43.35
;TARGET_MACHINE.NAME:ELEGOO NEPTUNE 4 Plus
;Generated with Cura_SteamEngine 5.10.2
;ELEGOO NEPTUNE 4 PLUS
M220 S100 ;Set the feed speed to 100%
M221 S100 ;Set the flow rate to 100%
M104 S140 ;Start heating extruder
M190 S60 ;Wait for the bed to reach print temp
G90
G28 ;home
G1 Z10 F300
G1 X115 Y0 F6000
G1 Z0 F300
M109 S210 ;Wait for extruder to reach print temp
G92 E0 ;Reset Extruder
G1 X115 Y0 Z0.4 F300 ;Move to start position
G1 X215 E30 F400 ;Draw the first line
G1 Z0.6 F120.0 ;Move to side a little
G1 X210 F3000
G92 E0 ;Reset Extruder
M82 ;absolute extrusion mode
G92 E0
G92 E0
G1 F2700 E-0.5
;LAYER_COUNT:289
;LAYER:0
M107
M204 S500
G0 F7200 X159.538 Y152.774 Z0.15
;TYPE:SKIRT
G1 F2700 E0
G1 F3600 X161.722 Y150.471 E0.10392
G1 X163.077 Y149.579 E0.15703
G1 X166.317 Y148.671 E0.26719
G1 X167.946 Y148.613 E0.32056
G1 X171.216 Y149.531 E0.43176
G1 X172.615 Y150.309 E0.48417
G1 X174.953 Y152.775 E0.59543
G1 X175.693 Y154.058 E0.64392
G1 X176.523 Y156.903 E0.74095
G1 X176.635 Y158.05 E0.77868
G1 X176.462 Y159.276 E0.81922
G1 X175.7 Y161.908 E0.90893
G1 X175.299 Y162.796 E0.94083
G1 X174.798 Y163.465 E0.9682
G1 X173.888 Y164.382 E1.01049
G1 X172.883 Y165.04 E1.04982
G1 X172.015 Y165.36 E1.08011
G1 X172.008 Y165.601 E1.08801
G1 X171.582 Y167.477 E1.15099
G1 X171.392 Y167.915 E1.16662
G1 X170.968 Y168.592 E1.19278
G1 X171.493 Y169.329 E1.2224
G1 X171.971 Y170.427 E1.26161
G1 X172.209 Y171.88 E1.30981
G1 X172.008 Y173.271 E1.35583
G1 X171.286 Y175.852 E1.44358
G1 X170.564 Y177.188 E1.4933
G1 X168.24 Y179.512 E1.6009
G1 X166.96 Y180.327 E1.65058
G1 X163.732 Y181.232 E1.76035
G1 X162.07 Y181.287 E1.81479
G1 X158.94 Y180.369 E1.92158
G1 X157.637 Y179.658 E1.97018
G1 X155.241 Y177.262 E2.08112
G1 X154.438 Y176.003 E2.13001
G1 X153.575 Y173.066 E2.23024
G1 X153.437 Y171.85 E2.2703
G1 X153.628 Y170.616 E2.31119
G1 X154.366 Y168.095 E2.39719
G1 X154.974 Y166.881 E2.44164
G1 X156.038 Y165.769 E2.49203
G1 X157.022 Y165.071 E2.53153
G1 X158.039 Y164.675 E2.56726
G1 X158.116 Y163.415 E2.60859
G1 X158.942 Y161.42 E2.67929
G1 X159.018 Y161.292 E2.68416
G1 X158.53 Y160.512 E2.71429
G1 X158.066 Y159.464 E2.75181
G1 X157.84 Y157.986 E2.80076
G1 X158.06 Y156.596 E2.84684
G1 X158.799 Y154.065 E2.93316
G1 X159.538 Y152.774 E2.98187
G0 F7200 X159.964 Y153.088
G1 F3600 X162.062 Y150.876 E3.08168
G1 X163.295 Y150.064 E3.13002
G1 X166.399 Y149.194 E3.23556
G1 X167.885 Y149.141 E3.28425
G1 X171.013 Y150.019 E3.39062
G1 X172.29 Y150.729 E3.43845
G1 X174.529 Y153.091 E3.54501
G1 X175.207 Y154.266 E3.58942
G1 X176.006 Y157.006 E3.68287
G1 X176.107 Y158.036 E3.71675
G1 X175.942 Y159.203 E3.75534
G1 X175.221 Y161.692 E3.84018
G1 X174.843 Y162.53 E3.87028
G1 X174.425 Y163.095 E3.89329
G1 X173.553 Y163.974 E3.93383
G1 X172.646 Y164.568 E3.96933
G1 X171.754 Y164.896 E4.00044
G1 X171.467 Y164.945 E4.00998
G1 X171.496 Y165.485 E4.02768
G1 X171.07 Y167.361 E4.09067
G1 X170.947 Y167.636 E4.10053
G1 X170.307 Y168.658 E4.14001
G1 X170.527 Y168.877 E4.15017
G1 X171.035 Y169.591 E4.17886
G1 X171.463 Y170.575 E4.21399
G1 X171.678 Y171.884 E4.25743
G1 X171.502 Y173.129 E4.29859
G1 X170.795 Y175.655 E4.38447
G1 X170.137 Y176.873 E4.4298
G1 X167.911 Y179.099 E4.53287
G1 X166.742 Y179.843 E4.57823
G1 X163.654 Y180.709 E4.68324
G1 X162.137 Y180.759 E4.73293
G1 X159.142 Y179.881 E4.83512
G1 X157.953 Y179.232 E4.87947
G1 X155.654 Y176.933 E4.98591
G1 X154.921 Y175.784 E5.03054
G1 X154.092 Y172.962 E5.12683
G1 X153.967 Y171.859 E5.16318
G1 X154.132 Y170.763 E5.19946
G1 X154.857 Y168.286 E5.28397
G1 X155.407 Y167.187 E5.3242
G1 X156.382 Y166.169 E5.37035
G1 X157.274 Y165.536 E5.40616
G1 X158.289 Y165.141 E5.44182
G1 X158.539 Y165.092 E5.45016
G1 X158.635 Y163.535 E5.50124
G1 X159.427 Y161.621 E5.56906
G1 X159.712 Y161.257 E5.58419
G1 X159.452 Y161 E5.59616
G1 X158.976 Y160.235 E5.62566
G1 X158.574 Y159.316 E5.6585
G1 X158.371 Y157.988 E5.70248
G1 X158.564 Y156.743 E5.74373
G1 X159.285 Y154.274 E5.82795
G1 X159.964 Y153.088 E5.87269
G0 F7200 X160.39 Y153.402
G1 F3600 X162.402 Y151.281 E5.96841
G1 X163.513 Y150.549 E6.01197
G1 X166.481 Y149.717 E6.11289
G1 X167.824 Y149.669 E6.15688
G1 X170.81 Y150.507 E6.25842
G1 X171.965 Y151.149 E6.30169
G1 X174.105 Y153.407 E6.40354
G1 X174.721 Y154.474 E6.44388
G1 X175.489 Y157.109 E6.53374
G1 X175.579 Y158.023 E6.56381
G1 X175.437 Y159.058 E6.59801
G1 X174.742 Y161.476 E6.68039
G1 X174.386 Y162.265 E6.70873
G1 X174.052 Y162.725 E6.72734
G1 X173.218 Y163.566 E6.76612
G1 X172.409 Y164.096 E6.79778
G1 X171.573 Y164.403 E6.82694
G1 X170.892 Y164.487 E6.84941
G1 X170.984 Y165.369 E6.87844
G1 X170.569 Y167.195 E6.93975
G1 X170.502 Y167.357 E6.94549
G1 X169.632 Y168.747 E6.99918
G1 X170.099 Y169.181 E7.02005
G1 X170.576 Y169.851 E7.04698
G1 X170.956 Y170.724 E7.07815
G1 X171.147 Y171.89 E7.11683
G1 X170.996 Y172.988 E7.15312
G1 X170.305 Y175.457 E7.23706
G1 X169.71 Y176.558 E7.27804
G1 X167.582 Y178.686 E7.37657
G1 X166.524 Y179.359 E7.41762
G1 X163.576 Y180.186 E7.51787
G1 X162.204 Y180.231 E7.56281
G1 X159.342 Y179.392 E7.66046
G1 X158.27 Y178.807 E7.70044
G1 X156.067 Y176.604 E7.80244
G1 X155.404 Y175.565 E7.8428
G1 X154.609 Y172.858 E7.93517
G1 X154.496 Y171.866 E7.96786
G1 X154.636 Y170.91 E7.99949
G1 X155.348 Y168.476 E8.08252
G1 X155.84 Y167.493 E8.11851
G1 X156.726 Y166.569 E8.16042
G1 X157.526 Y166.001 E8.19255
G1 X158.479 Y165.63 E8.22603
G1 X159.036 Y165.557 E8.24442
G1 X159.154 Y163.655 E8.30681
G1 X159.912 Y161.822 E8.37175
G1 X160.454 Y161.211 E8.3985
G1 X159.896 Y160.72 E8.42283
G1 X159.457 Y160.024 E8.44977
G1 X159.082 Y159.168 E8.48037
G1 X158.902 Y157.988 E8.51945
G1 X159.068 Y156.89 E8.55581
G1 X159.771 Y154.483 E8.63791
G1 X160.39 Y153.402 E8.67869
G0 F7200 X160.816 Y153.716
G1 F3600 X162.739 Y151.688 E8.77019
G1 X163.734 Y151.033 E8.80919
G1 X166.563 Y150.24 E8.90539
G1 X167.763 Y150.197 E8.9447
G1 X170.607 Y150.995 E9.04141
G1 X171.64 Y151.569 E9.0801
G1 X173.679 Y153.721 E9.17716
G1 X174.235 Y154.684 E9.21357
G1 X174.972 Y157.211 E9.29975
G1 X175.051 Y158.009 E9.32601
G1 X174.932 Y158.914 E9.35589
G1 X174.263 Y161.26 E9.43576
G1 X173.929 Y162.001 E9.46237
G1 X173.679 Y162.355 E9.47656
G1 X172.883 Y163.158 E9.51358
G1 X172.172 Y163.624 E9.54141
G1 X171.448 Y163.89 E9.56667
G1 X170.719 Y163.979 E9.59071
G1 X170.31 Y163.958 E9.60412
G1 X170.453 Y165.337 E9.64951
G1 X170.057 Y167.079 E9.708
G1 X169.139 Y168.546 E9.76466
G1 X168.815 Y168.847 E9.77914
G1 X169.383 Y169.212 E9.80124
G1 X169.671 Y169.486 E9.81426
G1 X170.119 Y170.115 E9.83954
G1 X170.448 Y170.871 E9.86654
G1 X170.616 Y171.898 E9.90061
G1 X170.49 Y172.847 E9.93195
G1 X169.815 Y175.259 E10.01396
G1 X169.283 Y176.243 E10.05058
G1 X167.253 Y178.273 E10.14457
G1 X166.306 Y178.875 E10.18131
G1 X163.498 Y179.663 E10.2768
G1 X162.271 Y179.703 E10.31699
G1 X159.542 Y178.903 E10.4101
G1 X158.587 Y178.382 E10.44572
G1 X156.479 Y176.274 E10.54332
G1 X155.887 Y175.347 E10.57933
G1 X155.126 Y172.754 E10.66781
G1 X155.026 Y171.874 E10.69681
G1 X155.14 Y171.057 E10.72382
G1 X155.838 Y168.671 E10.80521
G1 X156.274 Y167.799 E10.83713
G1 X157.073 Y166.967 E10.87489
G1 X157.777 Y166.467 E10.90317
G1 X158.67 Y166.119 E10.93454
G1 X159.398 Y166.051 E10.95848
G1 X159.699 Y166.076 E10.96837
G1 X159.566 Y165.494 E10.98792
G1 X159.673 Y163.775 E11.04431
G1 X160.364 Y162.104 E11.10351
G1 X161.24 Y161.115 E11.14677
G1 X160.943 Y160.942 E11.15802
G1 X160.302 Y160.379 E11.18595
G1 X159.938 Y159.813 E11.20798
G1 X159.59 Y159.02 E11.23634
G1 X159.433 Y157.986 E11.27058
G1 X159.572 Y157.037 E11.30198
G1 X160.257 Y154.692 E11.38197
G1 X160.816 Y153.716 E11.41879
G0 F7200 X161.242 Y154.03
G1 F3600 X163.079 Y152.093 E11.50619
G1 X163.952 Y151.518 E11.54042
G1 X166.645 Y150.763 E11.63199
G1 X167.702 Y150.725 E11.66662
G1 X170.404 Y151.483 E11.7585
G1 X171.315 Y151.989 E11.79262
G1 X173.255 Y154.036 E11.88495
G1 X173.749 Y154.892 E11.91731
G1 X174.455 Y157.313 E11.99988
G1 X174.523 Y157.999 E12.02245
G1 X174.427 Y158.771 E12.04792
G1 X173.784 Y161.044 E12.12526
G1 X173.45 Y161.785 E12.15187
G1 X173.259 Y162.039 E12.16227
G1 X172.55 Y162.748 E12.1951
G1 X171.935 Y163.152 E12.21919
G1 X171.322 Y163.377 E12.24057
G1 X170.656 Y163.458 E12.26254
G1 X170.095 Y163.415 E12.28096
G1 X169.541 Y163.231 E12.30007
G1 X169.764 Y163.778 E12.31941
G1 X169.922 Y165.304 E12.36964
G1 X169.564 Y166.877 E12.42246
G1 X168.694 Y168.268 E12.47617
G1 X167.778 Y169.014 E12.51485
G1 X168.087 Y169.08 E12.5252
G1 X168.484 Y169.259 E12.53945
G1 X169.099 Y169.654 E12.56338
G1 X169.243 Y169.791 E12.56989
G1 X169.661 Y170.378 E12.59349
G1 X169.941 Y171.021 E12.61645
G1 X170.085 Y171.905 E12.64577
G1 X169.984 Y172.706 E12.6722
G1 X169.325 Y175.061 E12.75227
G1 X168.856 Y175.928 E12.78454
G1 X166.924 Y177.86 E12.874
G1 X166.091 Y178.39 E12.90632
G1 X163.416 Y179.14 E12.99728
G1 X162.338 Y179.175 E13.03259
G1 X159.744 Y178.415 E13.12109
G1 X158.903 Y177.956 E13.15246
G1 X156.891 Y175.944 E13.24562
G1 X156.37 Y175.129 E13.27729
G1 X155.643 Y172.65 E13.36187
G1 X155.555 Y171.878 E13.38731
G1 X155.644 Y171.204 E13.40957
G1 X156.329 Y168.861 E13.48949
G1 X156.706 Y168.108 E13.51706
G1 X157.42 Y167.365 E13.5508
G1 X158.028 Y166.933 E13.57522
G1 X158.791 Y166.635 E13.60204
G1 X159.447 Y166.574 E13.62361
G1 X160.051 Y166.65 E13.64354
G1 X160.438 Y166.767 E13.65678
G1 X160.09 Y165.527 E13.69894
G1 X160.192 Y163.895 E13.75248
G1 X160.816 Y162.386 E13.80594
G1 X161.827 Y161.243 E13.8559
G1 X162.26 Y160.964 E13.87277
G1 X161.832 Y160.831 E13.88744
G1 X161.289 Y160.548 E13.90749
G1 X160.706 Y160.036 E13.93289
G1 X160.38 Y159.529 E13.95263
G1 X160.099 Y158.874 E13.97596
G1 X159.964 Y157.985 E14.0054
G1 X160.076 Y157.184 E14.03188
G1 X160.743 Y154.901 E14.10976
G1 X161.242 Y154.03 E14.14262
G0 F7200 X161.665 Y154.347
G1 F3600 X163.419 Y152.498 E14.22606
G1 X164.17 Y152.003 E14.25551
G1 X166.727 Y151.286 E14.34246
G1 X167.641 Y151.253 E14.3724
G1 X170.201 Y151.971 E14.45945
G1 X170.99 Y152.409 E14.489
G1 X172.831 Y154.351 E14.57661
G1 X173.263 Y155.1 E14.60492
G1 X173.938 Y157.415 E14.68387
G1 X173.995 Y157.993 E14.70288
G1 X173.921 Y158.629 E14.72385
G1 X173.305 Y160.828 E14.79862
G1 X172.994 Y161.517 E14.82336
G1 X172.888 Y161.668 E14.82941
G1 X172.218 Y162.338 E14.86043
G1 X171.698 Y162.68 E14.8808
G1 X171.197 Y162.864 E14.89828
G1 X170.593 Y162.937 E14.9182
G1 X170.147 Y162.893 E14.93287
G1 X169.465 Y162.644 E14.95664
G1 X168.894 Y162.196 E14.9804
G1 X168.6 Y161.864 E14.99492
G1 X168.124 Y161.37 E15.01738
G1 X167.644 Y160.999 E15.03725
G1 X166.784 Y160.557 E15.0689
G1 X166.199 Y160.357 E15.08915
G1 X165.22 Y160.216 E15.12153
G1 X164.625 Y160.219 E15.14101
G1 X163.191 Y160.494 E15.18882
G1 X162.546 Y160.499 E15.20993
G1 X162.075 Y160.365 E15.22597
G1 X161.586 Y160.11 E15.24402
G1 X161.107 Y159.69 E15.26488
G1 X160.862 Y159.322 E15.27935
G1 X160.608 Y158.73 E15.30045
G1 X160.495 Y157.983 E15.32518
G1 X160.58 Y157.331 E15.34671
G1 X161.23 Y155.106 E15.4226
G1 X161.665 Y154.347 E15.45124
G1 F2700 E14.95124
G0 F7200 X163.481 Y160.868
G1 F2700 E15.45124
G1 F3600 X164.901 Y160.597 E15.49857
G1 X166.332 Y160.806 E15.54592
G1 X167.629 Y161.468 E15.5936
G1 X168.629 Y162.512 E15.64093
G1 X169.242 Y163.832 E15.68858
G1 X169.391 Y165.271 E15.73594
G1 X169.071 Y166.675 E15.78309
G1 X168.296 Y167.915 E15.83097
G1 X167.178 Y168.826 E15.87818
G1 X165.824 Y169.325 E15.92543
G1 X164.373 Y169.356 E15.97295
G1 X162.994 Y168.916 E16.02034
G1 X161.83 Y168.05 E16.06784
G1 X161.006 Y166.846 E16.11561
G1 X160.62 Y165.469 E16.16243
G1 X160.711 Y164.015 E16.21012
G1 X161.268 Y162.668 E16.25785
G1 X162.22 Y161.591 E16.30491
G1 X163.481 Y160.868 E16.3525
G0 F7200 X163.137 Y159.969
G1 F3600 X162.618 Y159.973 E16.36949
G1 X162.305 Y159.893 E16.38007
G1 X161.92 Y159.705 E16.3941
G1 X161.537 Y159.389 E16.41035
G1 X161.345 Y159.115 E16.42131
G1 X161.117 Y158.583 E16.44026
G1 X161.025 Y157.976 E16.46036
G1 X161.084 Y157.478 E16.47678
G1 X161.717 Y155.311 E16.55069
G1 X162.088 Y154.664 E16.57511
G1 X163.756 Y152.905 E16.65448
G1 X164.391 Y152.487 E16.67937
G1 X166.809 Y151.809 E16.76159
G1 X167.577 Y151.781 E16.78675
G1 X170.002 Y152.461 E16.86921
G1 X170.665 Y152.829 E16.89403
G1 X172.407 Y154.666 E16.97692
G1 X172.777 Y155.308 E17.00118
G1 X173.434 Y157.562 E17.07805
G1 X173.473 Y157.938 E17.09042
G1 X173.415 Y158.487 E17.1085
G1 X172.799 Y160.686 E17.18327
G1 X172.517 Y161.297 E17.2053
G1 X171.886 Y161.928 E17.23451
G1 X171.41 Y162.241 E17.25317
G1 X171.079 Y162.35 E17.26458
G1 X170.615 Y162.412 E17.2799
G1 X170.327 Y162.4 E17.28934
G1 X169.724 Y162.18 E17.31036
G1 X169.218 Y161.783 E17.33141
G1 X168.987 Y161.509 E17.34315
G1 X168.477 Y160.98 E17.3672
G1 X167.925 Y160.553 E17.39005
G1 X166.989 Y160.072 E17.42451
G1 X166.322 Y159.844 E17.44759
G1 X165.259 Y159.691 E17.48275
G1 X164.572 Y159.694 E17.50524
G1 X163.137 Y159.969 E17.55308
G1 F2700 E17.05308
G0 F7200 X160.481 Y167.329
G1 F2700 E17.55308
G1 F3600 X161.079 Y167.788 E17.57776
G1 X161.735 Y168.514 E17.60979
G1 X162.511 Y169.093 E17.64149
G1 X163.047 Y169.382 E17.66143
G1 X163.976 Y169.678 E17.69335
G1 X164.582 Y169.778 E17.71346
G1 X165.56 Y169.757 E17.74549
G1 X166.01 Y169.68 E17.76044
G1 X166.568 Y169.518 E17.77946
G1 X167.204 Y169.457 E17.80038
G1 X167.878 Y169.561 E17.82271
G1 X168.2 Y169.701 E17.8342
G1 X168.815 Y170.096 E17.85813
G1 X169.202 Y170.639 E17.87997
G1 X169.434 Y171.173 E17.89903
G1 X169.555 Y171.915 E17.92364
G1 X169.478 Y172.564 E17.94504
G1 X168.834 Y174.864 E18.02324
G1 X168.429 Y175.613 E18.05112
G1 X166.595 Y177.447 E18.13604
G1 X165.873 Y177.906 E18.16405
G1 X163.338 Y178.617 E18.25025
G1 X162.405 Y178.647 E18.28081
G1 X159.946 Y177.927 E18.3647
G1 X159.219 Y177.53 E18.39182
G1 X157.303 Y175.614 E18.48053
G1 X156.853 Y174.911 E18.50786
G1 X156.16 Y172.546 E18.58855
G1 X156.084 Y171.88 E18.61049
G1 X156.148 Y171.351 E18.62794
G1 X156.819 Y169.056 E18.70622
G1 X157.141 Y168.412 E18.7298
G1 X157.763 Y167.765 E18.75918
G1 X158.279 Y167.398 E18.77991
G1 X158.912 Y167.151 E18.80216
G1 X159.439 Y167.102 E18.81949
G1 X159.899 Y167.153 E18.83464
G1 X160.481 Y167.329 E18.85455
G0 F7200 X160.236 Y167.803
G1 F3600 X160.72 Y168.174 E18.87452
G1 X161.27 Y168.784 E18.90141
G1 X161.656 Y169.11 E18.91795
G1 X162.23 Y169.537 E18.94137
G1 X162.841 Y169.867 E18.96411
G1 X163.853 Y170.19 E18.99889
G1 X164.546 Y170.304 E19.02188
G1 X165.612 Y170.281 E19.05679
G1 X166.123 Y170.194 E19.07376
G1 X166.635 Y170.039 E19.09128
G1 X167.124 Y169.976 E19.10742
G1 X167.732 Y170.07 E19.12756
G1 X167.916 Y170.143 E19.13404
G1 X168.447 Y170.484 E19.1547
G1 X168.721 Y170.849 E19.16965
G1 X168.927 Y171.322 E19.18654
G1 X169.025 Y171.926 E19.20657
G1 X168.972 Y172.422 E19.2229
G1 X168.343 Y174.667 E19.29924
G1 X168.002 Y175.298 E19.32272
G1 X166.266 Y177.034 E19.4031
G1 X165.658 Y177.421 E19.4267
G1 X163.256 Y178.094 E19.50837
G1 X162.471 Y178.119 E19.53408
G1 X160.15 Y177.44 E19.61326
G1 X159.535 Y177.104 E19.6362
G1 X157.715 Y175.284 E19.72047
G1 X157.336 Y174.693 E19.74346
G1 X156.677 Y172.442 E19.82025
G1 X156.613 Y171.879 E19.8388
G1 X156.652 Y171.498 E19.85134
G1 X157.31 Y169.249 E19.92806
G1 X157.575 Y168.718 E19.94749
G1 X158.081 Y168.183 E19.9716
G1 X158.47 Y167.887 E19.9876
G1 X159.035 Y167.666 E20.00747
G1 X159.381 Y167.624 E20.01888
G1 X159.841 Y167.675 E20.03403
G1 X160.236 Y167.803 E20.04763
G1 F2700 E19.54763
G0 F7200 X161.49 Y166.624
G1 F2700 E20.04763
G1 F3600 X161.15 Y165.411 E20.08887
G1 X161.23 Y164.134 E20.13076
G1 X161.718 Y162.953 E20.1726
G1 X162.557 Y162.003 E20.2141
G1 X163.666 Y161.368 E20.25594
G1 X164.915 Y161.129 E20.29757
G1 X166.168 Y161.312 E20.33903
G1 X167.313 Y161.897 E20.38113
G1 X168.19 Y162.812 E20.42262
G1 X168.729 Y163.973 E20.46453
G1 X168.86 Y165.238 E20.50617
G1 X168.579 Y166.473 E20.54764
G1 X167.898 Y167.562 E20.58969
G1 X166.915 Y168.363 E20.6312
G1 X165.724 Y168.802 E20.67276
G1 X164.449 Y168.829 E20.71452
G1 X163.236 Y168.442 E20.7562
G1 X162.213 Y167.681 E20.79795
G1 X161.49 Y166.624 E20.83988
