;FLAVOR:Marlin
;TIME:768
;Filament used: 0.80934m
;Layer height: 0.15
;MINX:140.498
;MINY:153.003
;MINZ:0.15
;MAXX:177.543
;MAXY:192.009
;MAXZ:11.55
;TARGET_MACHINE.NAME:ELEGOO NEPTUNE 4 Plus
;Generated with Cura_SteamEngine 5.10.2
;ELEGOO NEPTUNE 4 PLUS
M220 S100 ;Set the feed speed to 100%
M221 S100 ;Set the flow rate to 100%
M104 S140 ;Start heating extruder
M190 S60 ;Wait for the bed to reach print temp
G90
G28 ;home
G1 Z10 F300
G1 X115 Y0 F6000
G1 Z0 F300
M109 S210 ;Wait for extruder to reach print temp
G92 E0 ;Reset Extruder
G1 X115 Y0 Z0.4 F300 ;Move to start position
G1 X215 E30 F400 ;Draw the first line
G1 Z0.6 F120.0 ;Move to side a little
G1 X210 F3000
G92 E0 ;Reset Extruder
M82 ;absolute extrusion mode
G92 E0
G92 E0
G1 F2700 E-0.5
;LAYER_COUNT:77
;LAYER:0
M107
M204 S500
G0 F7200 X158.34 Y154.976 Z0.15
;TYPE:SKIRT
G1 F2700 E0
G1 F3600 X159.133 Y154.341 E0.03326
G1 X160.31 Y153.597 E0.07885
G1 X162.186 Y153.069 E0.14266
G1 X164.221 Y153.124 E0.20931
G1 X166.052 Y153.766 E0.27283
G1 X167.622 Y154.904 E0.33632
G1 X168.74 Y156.405 E0.3976
G1 X168.831 Y156.584 E0.40417
G1 X170.206 Y156.216 E0.45077
G1 X172.122 Y156.265 E0.51353
G1 X174.065 Y156.93 E0.58076
G1 X175.597 Y158.058 E0.64305
G1 X176.783 Y159.622 E0.70731
G1 X177.47 Y161.559 E0.7746
G1 X177.543 Y163.454 E0.83669
G1 X177.065 Y165.323 E0.89985
G1 X175.979 Y167.076 E0.96737
G1 X174.518 Y168.331 E1.03043
G1 X172.92 Y169.05 E1.0878
G1 X171.326 Y169.296 E1.14061
G1 X170.693 Y169.309 E1.16133
G1 X170.324 Y170.689 E1.2081
G1 X169.305 Y172.358 E1.27213
G1 X167.76 Y173.698 E1.33909
G1 X166.158 Y174.391 E1.39623
G1 X164.76 Y174.642 E1.44274
G1 X163.711 Y174.623 E1.47709
G1 X162.072 Y174.32 E1.53166
G1 X160.55 Y173.519 E1.58797
G1 X159.25 Y172.403 E1.64406
G1 X158.172 Y170.633 E1.71192
G1 X157.699 Y168.764 E1.77504
G1 X157.773 Y166.854 E1.83762
G1 X158.403 Y165.158 E1.89685
G1 X158.749 Y164.588 E1.91868
G1 X157.726 Y163.565 E1.96605
G1 X156.887 Y162.025 E2.02347
G1 X156.438 Y160.244 E2.0836
G1 X156.537 Y158.327 E2.14645
G1 X157.178 Y156.506 E2.20966
G1 X158.34 Y154.976 E2.27256
G1 F2700 E1.77256
G0 F7200 X161.027 Y160.422
G0 X161.333 Y160.94
G0 X164.719 Y163.685
G1 F2700 E2.27256
G1 F3600 X164.968 Y163.708 E2.28075
G1 X166.058 Y163.999 E2.31768
G1 X166.869 Y164.524 E2.34931
G1 X166.534 Y163.271 E2.39178
G1 X166.585 Y162.232 E2.42584
G1 X166.352 Y162.562 E2.43906
G1 X165.438 Y163.368 E2.47896
G1 X164.719 Y163.685 E2.50469
G1 F2700 E2.00469
G0 F7200 X157.491 Y171.499
G1 F2700 E2.50469
G1 F3600 X158.791 Y172.615 E2.56078
G1 X159.869 Y174.385 E2.62863
G1 X160.342 Y176.254 E2.69176
G1 X160.268 Y178.164 E2.75434
G1 X159.638 Y179.86 E2.81357
G1 X159.292 Y180.43 E2.8354
G1 X160.315 Y181.453 E2.88277
G1 X161.154 Y182.993 E2.94019
G1 X161.603 Y184.774 E3.00032
G1 X161.504 Y186.691 E3.06317
G1 X160.863 Y188.512 E3.12638
G1 X159.701 Y190.042 E3.18928
G1 X158.908 Y190.677 E3.22254
G1 X157.731 Y191.421 E3.26813
G1 X155.855 Y191.949 E3.33194
G1 X153.82 Y191.894 E3.39859
G1 X151.989 Y191.252 E3.46211
G1 X150.419 Y190.114 E3.5256
G1 X149.301 Y188.613 E3.58688
G1 X149.21 Y188.434 E3.59345
G1 X147.835 Y188.802 E3.64005
G1 X145.919 Y188.753 E3.7028
G1 X143.976 Y188.088 E3.77004
G1 X142.444 Y186.96 E3.83233
G1 X141.258 Y185.396 E3.89659
G1 X140.571 Y183.459 E3.96388
G1 X140.498 Y181.564 E4.02597
G1 X140.976 Y179.695 E4.08913
G1 X142.062 Y177.942 E4.15665
G1 X143.521 Y176.689 E4.21961
G1 X145.097 Y175.981 E4.27618
G1 X146.72 Y175.7 E4.33011
G1 X147.344 Y175.724 E4.35055
G1 X147.717 Y174.329 E4.39783
G1 X148.736 Y172.66 E4.46185
G1 X150.279 Y171.322 E4.52872
G1 X151.893 Y170.623 E4.58631
G1 X153.302 Y170.398 E4.63302
G1 X154.222 Y170.375 E4.66315
G1 X155.969 Y170.698 E4.72132
G1 X157.491 Y171.499 E4.77763
G0 F7200 X157.194 Y171.936
G1 F3600 X158.386 Y172.959 E4.82906
G1 X159.379 Y174.589 E4.89155
G1 X159.814 Y176.308 E4.9496
G1 X159.746 Y178.061 E5.00704
G1 X159.163 Y179.632 E5.0619
G1 X158.744 Y180.32 E5.08828
G1 X158.609 Y180.489 E5.09536
G1 X159.89 Y181.77 E5.15467
G1 X160.661 Y183.186 E5.20746
G1 X161.075 Y184.826 E5.26284
G1 X160.984 Y186.588 E5.3206
G1 X160.396 Y188.259 E5.3786
G1 X159.321 Y189.674 E5.43678
G1 X158.627 Y190.233 E5.46596
G1 X157.512 Y190.938 E5.50915
G1 X155.792 Y191.422 E5.56765
G1 X153.915 Y191.371 E5.62913
G1 X152.235 Y190.782 E5.68741
G1 X150.793 Y189.737 E5.74572
G1 X149.722 Y188.299 E5.80442
G1 X149.525 Y187.806 E5.82181
G1 X147.773 Y188.275 E5.88119
G1 X146.013 Y188.23 E5.93883
G1 X144.222 Y187.617 E6.00081
G1 X142.815 Y186.581 E6.05801
G1 X141.726 Y185.145 E6.11702
G1 X141.093 Y183.36 E6.17903
G1 X141.026 Y181.62 E6.23604
G1 X141.465 Y179.902 E6.29409
G1 X142.466 Y178.287 E6.3563
G1 X143.805 Y177.137 E6.41409
G1 X145.253 Y176.486 E6.46607
G1 X146.751 Y176.227 E6.51584
G1 X147.805 Y176.267 E6.55037
G1 X147.831 Y175.934 E6.56131
G1 X148.204 Y174.539 E6.60859
G1 X149.141 Y173.004 E6.66747
G1 X150.562 Y171.772 E6.72904
G1 X152.043 Y171.131 E6.78188
G1 X153.315 Y170.923 E6.82408
G1 X154.183 Y170.901 E6.8525
G1 X155.795 Y171.199 E6.90618
G1 X157.194 Y171.936 E6.95795
G0 F7200 X156.894 Y172.371
G1 F3600 X157.983 Y173.305 E7.00492
G1 X158.889 Y174.793 E7.06196
G1 X159.286 Y176.362 E7.11495
G1 X159.224 Y177.958 E7.16724
G1 X158.689 Y179.399 E7.21756
G1 X158.295 Y180.047 E7.24239
G1 X157.777 Y180.664 E7.26877
G1 X158.331 Y180.953 E7.28923
G1 X159.465 Y182.087 E7.34173
G1 X160.168 Y183.378 E7.38986
G1 X160.547 Y184.879 E7.44055
G1 X160.464 Y186.485 E7.4932
G1 X159.929 Y188.006 E7.54599
G1 X158.941 Y189.307 E7.59948
G1 X158.346 Y189.789 E7.62455
G1 X157.293 Y190.455 E7.66534
G1 X155.729 Y190.895 E7.71853
G1 X154.01 Y190.848 E7.77483
G1 X152.481 Y190.312 E7.82788
G1 X151.167 Y189.36 E7.88101
G1 X150.143 Y187.985 E7.93714
G1 X149.795 Y186.992 E7.97159
G1 X149.254 Y187.335 E7.99256
G1 X147.711 Y187.748 E8.04486
G1 X146.107 Y187.707 E8.09739
G1 X144.468 Y187.146 E8.15411
G1 X143.186 Y186.202 E8.20623
G1 X142.195 Y184.895 E8.25993
G1 X141.615 Y183.26 E8.31673
G1 X141.554 Y181.676 E8.36863
G1 X141.954 Y180.109 E8.42158
G1 X142.87 Y178.632 E8.47848
G1 X144.089 Y177.585 E8.53109
G1 X145.409 Y176.991 E8.57849
G1 X146.782 Y176.754 E8.6241
G1 X147.591 Y176.785 E8.65061
G1 X148.304 Y176.913 E8.67433
G1 X148.338 Y176.07 E8.70195
G1 X148.692 Y174.747 E8.74679
G1 X149.545 Y173.349 E8.80041
G1 X150.846 Y172.221 E8.85678
G1 X152.191 Y171.639 E8.90477
G1 X153.329 Y171.448 E8.94255
G1 X154.144 Y171.427 E8.96924
G1 X155.621 Y171.7 E9.01841
G1 X156.894 Y172.371 E9.06553
G0 F7200 X156.594 Y172.806
G1 F3600 X157.58 Y173.651 E9.10804
G1 X158.399 Y174.997 E9.15963
G1 X158.758 Y176.416 E9.20755
G1 X158.702 Y177.855 E9.2547
G1 X158.215 Y179.167 E9.30052
G1 X157.846 Y179.774 E9.32378
G1 X157.114 Y180.632 E9.3607
G1 X156.898 Y180.797 E9.3696
G1 X158.017 Y181.381 E9.41093
G1 X159.04 Y182.404 E9.45829
G1 X159.675 Y183.57 E9.50176
G1 X160.019 Y184.932 E9.54776
G1 X159.944 Y186.382 E9.59529
G1 X159.462 Y187.753 E9.64287
G1 X158.561 Y188.939 E9.69164
G1 X158.065 Y189.345 E9.71262
G1 X157.074 Y189.972 E9.75102
G1 X155.666 Y190.368 E9.79891
G1 X154.105 Y190.325 E9.85003
G1 X152.727 Y189.842 E9.89784
G1 X151.541 Y188.983 E9.94579
G1 X150.611 Y187.734 E9.99677
G1 X150.158 Y186.441 E10.04163
G1 X150.123 Y186.161 E10.05086
G1 X149.04 Y186.849 E10.09287
G1 X147.649 Y187.221 E10.14002
G1 X146.201 Y187.184 E10.18744
G1 X144.714 Y186.675 E10.2389
G1 X143.557 Y185.823 E10.28594
G1 X142.663 Y184.644 E10.33438
G1 X142.137 Y183.161 E10.3859
G1 X142.082 Y181.732 E10.43272
G1 X142.443 Y180.316 E10.48057
G1 X143.274 Y178.977 E10.53216
G1 X144.372 Y178.034 E10.57955
G1 X145.567 Y177.496 E10.62246
G1 X146.814 Y177.281 E10.66389
G1 X147.498 Y177.302 E10.68629
G1 X148.452 Y177.473 E10.71802
G1 X148.882 Y177.644 E10.73317
G1 X148.824 Y177.051 E10.75268
G1 X148.861 Y176.147 E10.7823
G1 X149.18 Y174.955 E10.8227
G1 X149.949 Y173.694 E10.87106
G1 X151.13 Y172.67 E10.92224
G1 X152.342 Y172.146 E10.96547
G1 X153.343 Y171.973 E10.99873
G1 X154.105 Y171.953 E11.02368
G1 X155.447 Y172.201 E11.06837
G1 X156.594 Y172.806 E11.11082
G0 F7200 X156.294 Y173.241
G1 F3600 X157.175 Y173.996 E11.14881
G1 X157.91 Y175.204 E11.19511
G1 X158.23 Y176.47 E11.23786
G1 X158.18 Y177.752 E11.27986
G1 X157.741 Y178.935 E11.32118
G1 X157.397 Y179.501 E11.34286
G1 X156.717 Y180.289 E11.37694
G1 X155.598 Y181.011 E11.42054
G1 X155.95 Y181.051 E11.43214
G1 X156.585 Y181.227 E11.45371
G1 X157.705 Y181.811 E11.49507
G1 X158.615 Y182.721 E11.5372
G1 X159.182 Y183.762 E11.57601
G1 X159.491 Y184.985 E11.61731
G1 X159.424 Y186.279 E11.65974
G1 X158.995 Y187.5 E11.70211
G1 X158.18 Y188.572 E11.7462
G1 X157.732 Y188.939 E11.76516
G1 X156.859 Y189.488 E11.79892
G1 X155.603 Y189.841 E11.84164
G1 X154.2 Y189.802 E11.88759
G1 X152.973 Y189.372 E11.93016
G1 X151.915 Y188.606 E11.97292
G1 X151.08 Y187.485 E12.01869
G1 X150.654 Y186.268 E12.0609
G1 X150.586 Y184.933 E12.10467
G1 X150.03 Y185.599 E12.13307
G1 X148.828 Y186.362 E12.17969
G1 X147.587 Y186.694 E12.22175
G1 X146.295 Y186.661 E12.26406
G1 X144.96 Y186.204 E12.31026
G1 X143.928 Y185.444 E12.35222
G1 X143.131 Y184.393 E12.39541
G1 X142.659 Y183.062 E12.44164
G1 X142.61 Y181.788 E12.48339
G1 X142.932 Y180.523 E12.52612
G1 X143.678 Y179.322 E12.57241
G1 X144.656 Y178.482 E12.61462
G1 X145.723 Y178.002 E12.65293
G1 X146.849 Y177.807 E12.69034
G1 X147.405 Y177.819 E12.70855
G1 X148.359 Y177.99 E12.74028
G1 X149.363 Y178.424 E12.77609
G1 X149.735 Y178.719 E12.79164
G1 X149.452 Y178.08 E12.81452
G1 X149.347 Y177 E12.85005
G1 X149.383 Y176.228 E12.87535
G1 X149.668 Y175.163 E12.91144
G1 X150.353 Y174.039 E12.95454
G1 X151.414 Y173.119 E13.00052
G1 X152.492 Y172.653 E13.03897
G1 X153.357 Y172.498 E13.06774
G1 X154.066 Y172.479 E13.09096
G1 X155.273 Y172.702 E13.13115
G1 X156.294 Y173.241 E13.16895
G1 F2700 E12.66895
G0 F7200 X158.662 Y170.429
G1 F2700 E13.16895
G1 F3600 X158.227 Y168.71 E13.227
G1 X158.295 Y166.957 E13.28444
G1 X158.878 Y165.386 E13.3393
G1 X159.297 Y164.698 E13.36568
G1 X159.432 Y164.529 E13.37276
G1 X158.151 Y163.248 E13.43207
G1 X157.38 Y161.832 E13.48486
G1 X156.966 Y160.192 E13.54024
G1 X157.057 Y158.43 E13.598
G1 X157.645 Y156.759 E13.656
G1 X158.72 Y155.344 E13.71418
G1 X159.414 Y154.785 E13.74336
G1 X160.529 Y154.08 E13.78655
G1 X162.249 Y153.596 E13.84505
G1 X164.126 Y153.647 E13.90653
G1 X165.806 Y154.236 E13.96481
G1 X167.248 Y155.281 E14.02312
G1 X168.319 Y156.719 E14.08182
G1 X168.516 Y157.212 E14.0992
G1 X170.268 Y156.743 E14.15859
G1 X172.028 Y156.788 E14.21623
G1 X173.819 Y157.401 E14.27821
G1 X175.226 Y158.437 E14.33541
G1 X176.315 Y159.873 E14.39442
G1 X176.948 Y161.658 E14.45642
G1 X177.015 Y163.398 E14.51344
G1 X176.576 Y165.116 E14.57149
G1 X175.575 Y166.731 E14.6337
G1 X174.235 Y167.882 E14.69153
G1 X172.769 Y168.542 E14.74417
G1 X171.315 Y168.771 E14.79236
G1 X170.578 Y168.786 E14.8165
G1 X170.238 Y168.733 E14.82776
G1 X170.21 Y169.084 E14.83929
G1 X169.837 Y170.479 E14.88657
G1 X168.9 Y172.014 E14.94545
G1 X167.477 Y173.248 E15.00712
G1 X166.005 Y173.885 E15.05963
G1 X164.717 Y174.116 E15.10247
G1 X163.761 Y174.099 E15.13378
G1 X162.246 Y173.819 E15.18422
G1 X160.847 Y173.082 E15.23599
G1 X159.655 Y172.059 E15.28742
G1 X158.662 Y170.429 E15.34991
G0 F7200 X159.152 Y170.225
G1 F3600 X158.755 Y168.656 E15.4029
G1 X158.817 Y167.06 E15.45519
G1 X159.352 Y165.619 E15.50552
G1 X159.746 Y164.971 E15.53035
G1 X160.264 Y164.354 E15.55672
G1 X159.71 Y164.065 E15.57718
G1 X158.576 Y162.931 E15.62969
G1 X157.873 Y161.64 E15.67782
G1 X157.494 Y160.139 E15.7285
G1 X157.577 Y158.533 E15.78115
G1 X158.112 Y157.012 E15.83394
G1 X159.1 Y155.711 E15.88743
G1 X159.695 Y155.229 E15.9125
G1 X160.748 Y154.563 E15.95329
G1 X162.312 Y154.123 E16.00648
G1 X164.031 Y154.17 E16.06279
G1 X165.56 Y154.706 E16.11583
G1 X166.874 Y155.658 E16.16896
G1 X167.898 Y157.033 E16.22509
G1 X168.246 Y158.026 E16.25954
G1 X168.787 Y157.683 E16.28051
G1 X170.33 Y157.27 E16.33281
G1 X171.934 Y157.311 E16.38534
G1 X173.573 Y157.872 E16.44206
G1 X174.855 Y158.816 E16.49418
G1 X175.846 Y160.123 E16.54789
G1 X176.426 Y161.758 E16.60468
G1 X176.487 Y163.342 E16.65658
G1 X176.087 Y164.909 E16.70953
G1 X175.171 Y166.386 E16.76644
G1 X173.952 Y167.433 E16.81905
G1 X172.618 Y168.034 E16.86695
G1 X171.233 Y168.252 E16.91285
G1 X170.571 Y168.261 E16.93453
G1 X169.737 Y168.105 E16.96231
G1 X169.703 Y168.948 E16.98993
G1 X169.349 Y170.271 E17.03477
G1 X168.496 Y171.669 E17.08839
G1 X167.194 Y172.798 E17.14481
G1 X165.852 Y173.379 E17.19269
G1 X164.674 Y173.59 E17.23187
G1 X163.811 Y173.575 E17.26013
G1 X162.42 Y173.318 E17.30644
G1 X161.147 Y172.647 E17.35356
G1 X160.058 Y171.713 E17.40053
G1 X159.152 Y170.225 E17.45757
G0 F7200 X159.642 Y170.021
G1 F3600 X159.283 Y168.602 E17.50549
G1 X159.339 Y167.163 E17.55264
G1 X159.826 Y165.851 E17.59846
G1 X160.195 Y165.244 E17.62172
G1 X160.927 Y164.386 E17.65864
G1 X161.143 Y164.221 E17.66754
G1 X160.024 Y163.637 E17.70887
G1 X159.001 Y162.614 E17.75623
G1 X158.366 Y161.448 E17.7997
G1 X158.022 Y160.086 E17.8457
G1 X158.097 Y158.636 E17.89323
G1 X158.579 Y157.265 E17.94081
G1 X159.48 Y156.079 E17.98958
G1 X159.976 Y155.673 E18.01056
G1 X160.967 Y155.046 E18.04896
G1 X162.375 Y154.65 E18.09685
G1 X163.936 Y154.693 E18.14797
G1 X165.314 Y155.176 E18.19578
G1 X166.5 Y156.035 E18.24373
G1 X167.43 Y157.284 E18.29471
G1 X167.883 Y158.577 E18.33957
G1 X167.918 Y158.857 E18.3488
G1 X169.001 Y158.169 E18.39081
G1 X170.392 Y157.797 E18.43795
G1 X171.84 Y157.834 E18.48538
G1 X173.327 Y158.343 E18.53684
G1 X174.484 Y159.195 E18.58388
G1 X175.378 Y160.374 E18.63232
G1 X175.904 Y161.857 E18.68384
G1 X175.959 Y163.286 E18.73066
G1 X175.598 Y164.702 E18.77851
G1 X174.767 Y166.041 E18.8301
G1 X173.669 Y166.984 E18.87749
G1 X172.464 Y167.527 E18.92076
G1 X171.226 Y167.727 E18.96182
G1 X170.616 Y167.735 E18.98179
G1 X169.58 Y167.541 E19.0163
G1 X169.159 Y167.374 E19.03113
G1 X169.217 Y167.967 E19.05064
G1 X169.18 Y168.871 E19.08026
G1 X168.861 Y170.063 E19.12066
G1 X168.092 Y171.324 E19.16902
G1 X166.91 Y172.349 E19.22024
G1 X165.701 Y172.872 E19.26337
G1 X164.631 Y173.064 E19.29896
G1 X163.861 Y173.051 E19.32417
G1 X162.594 Y172.817 E19.36636
G1 X161.447 Y172.212 E19.40881
G1 X160.461 Y171.367 E19.45133
G1 X159.642 Y170.021 E19.50292
G0 F7200 X160.131 Y169.814
G1 F3600 X159.811 Y168.548 E19.54567
G1 X159.861 Y167.266 E19.58767
G1 X160.3 Y166.083 E19.62899
G1 X160.644 Y165.517 E19.65067
G1 X161.324 Y164.729 E19.68475
G1 X162.443 Y164.007 E19.72835
G1 X162.091 Y163.967 E19.73995
G1 X161.456 Y163.791 E19.76152
G1 X160.336 Y163.207 E19.80288
G1 X159.426 Y162.297 E19.84501
G1 X158.859 Y161.256 E19.88382
G1 X158.55 Y160.033 E19.92512
G1 X158.617 Y158.739 E19.96755
G1 X159.046 Y157.518 E20.00992
G1 X159.861 Y156.446 E20.05401
G1 X160.309 Y156.079 E20.07297
G1 X161.182 Y155.53 E20.10673
G1 X162.438 Y155.177 E20.14945
G1 X163.841 Y155.216 E20.1954
G1 X165.068 Y155.646 E20.23797
G1 X166.126 Y156.412 E20.28073
G1 X166.961 Y157.533 E20.3265
G1 X167.387 Y158.75 E20.36871
G1 X167.455 Y160.085 E20.41248
G1 X168.011 Y159.419 E20.44088
G1 X169.213 Y158.656 E20.4875
G1 X170.454 Y158.324 E20.52956
G1 X171.746 Y158.357 E20.57187
G1 X173.081 Y158.814 E20.61807
G1 X174.113 Y159.574 E20.66003
G1 X174.91 Y160.625 E20.70322
G1 X175.382 Y161.956 E20.74945
G1 X175.431 Y163.23 E20.79119
G1 X175.109 Y164.495 E20.83393
G1 X174.363 Y165.696 E20.88022
G1 X173.385 Y166.536 E20.92243
G1 X172.312 Y167.019 E20.96096
G1 X171.219 Y167.202 E20.99724
G1 X170.66 Y167.209 E21.01554
G1 X169.676 Y167.025 E21.04832
G1 X168.678 Y166.594 E21.08391
G1 X168.306 Y166.299 E21.09945
G1 X168.589 Y166.938 E21.12234
G1 X168.694 Y168.018 E21.15786
G1 X168.658 Y168.79 E21.18317
G1 X168.373 Y169.855 E21.21926
G1 X167.688 Y170.979 E21.26236
G1 X166.627 Y171.899 E21.30833
G1 X165.548 Y172.366 E21.34683
G1 X164.588 Y172.538 E21.37876
G1 X163.911 Y172.527 E21.40093
G1 X162.768 Y172.316 E21.43898
G1 X161.747 Y171.777 E21.47678
G1 X160.866 Y171.022 E21.51477
G1 X160.131 Y169.814 E21.56107
G0 F7200 X160.62 Y169.607
G1 F3600 X160.339 Y168.494 E21.59865
G1 X160.383 Y167.369 E21.63551
G1 X160.775 Y166.313 E21.67239
G1 X161.071 Y165.825 E21.69108
