;FLAVOR:Marlin
;TIME:623
;Filament used: 0.944444m
;Layer height: 0.15
;MINX:150.388
;MINY:130.151
;MINZ:0.15
;MAXX:209.603
;MAXY:178.444
;MAXZ:3.75
;TARGET_MACHINE.NAME:ELEGOO NEPTUNE 4 Plus
;Generated with Cura_SteamEngine 5.10.2
;ELEGOO NEPTUNE 4 PLUS
M220 S100 ;Set the feed speed to 100%
M221 S100 ;Set the flow rate to 100%
M104 S140 ;Start heating extruder
M190 S60 ;Wait for the bed to reach print temp
G90
G28 ;home
G1 Z10 F300
G1 X115 Y0 F6000
G1 Z0 F300
M109 S210 ;Wait for extruder to reach print temp
G92 E0 ;Reset Extruder
G1 X115 Y0 Z0.4 F300 ;Move to start position
G1 X215 E30 F400 ;Draw the first line
G1 Z0.6 F120.0 ;Move to side a little
G1 X210 F3000
G92 E0 ;Reset Extruder
M82 ;absolute extrusion mode
G92 E0
G92 E0
G1 F2700 E-0.5
;LAYER_COUNT:25
;LAYER:0
M107
M204 S500
G0 F7200 X151.354 Y132.283 Z0.15
;TYPE:SKIRT
G1 F2700 E0
G1 F3600 X152.261 Y131.295 E0.04391
G1 X153.329 Y130.669 E0.08444
G1 X154.021 Y130.386 E0.10892
G1 X155.297 Y130.151 E0.1514
G1 X157.945 Y130.292 E0.23822
G1 X159.783 Y130.553 E0.299
G1 X162.177 Y131.118 E0.37953
G1 X164.432 Y131.891 E0.45758
G1 X166.446 Y132.8 E0.52992
G1 X168.013 Y133.673 E0.58865
G1 X170.056 Y135.071 E0.6697
G1 X171.88 Y136.598 E0.74759
G1 X173.372 Y138.107 E0.81706
G1 X174.701 Y139.712 E0.88529
G1 X176.052 Y141.69 E0.96371
G1 X177.1 Y143.582 E1.03453
G1 X177.979 Y145.579 E1.10596
G1 X178.645 Y147.552 E1.17414
G1 X179.24 Y150.101 E1.25984
G1 X179.486 Y151.877 E1.31854
G1 X179.603 Y154.555 E1.4063
G1 X179.483 Y156.775 E1.47909
G1 X179.204 Y158.708 E1.54304
G1 X178.671 Y160.955 E1.61865
G1 X177.902 Y163.208 E1.69659
G1 X176.975 Y165.271 E1.77064
G1 X176.102 Y166.837 E1.82934
G1 X174.704 Y168.881 E1.91042
G1 X173.144 Y170.741 E1.9899
G1 X171.737 Y172.135 E2.05474
G1 X170.023 Y173.556 E2.12764
G1 X168.087 Y174.876 E2.20435
G1 X166.365 Y175.836 E2.2689
G1 X163.975 Y176.888 E2.3544
G1 X162.274 Y177.457 E2.41312
G1 X159.673 Y178.064 E2.50057
G1 X157.898 Y178.31 E2.55924
G1 X155.27 Y178.444 E2.64539
G1 X153.941 Y178.217 E2.68953
G1 X152.757 Y177.632 E2.73277
G1 X151.823 Y176.914 E2.77134
G1 X151.703 Y176.784 E2.77713
G1 X150.955 Y175.625 E2.8223
G1 X150.683 Y175.029 E2.84375
G1 X150.388 Y173.779 E2.8858
G1 X150.388 Y166.682 E3.11816
G1 X150.671 Y165.266 E3.16543
G1 X151.314 Y164.102 E3.20897
G1 X152.081 Y163.176 E3.24834
G1 X153.335 Y162.372 E3.29711
G1 X153.659 Y162.234 E3.30864
G1 X154.903 Y161.941 E3.35048
G1 X156.275 Y161.862 E3.39548
G1 X157.184 Y161.707 E3.42567
G1 X158.01 Y161.469 E3.45381
G1 X158.797 Y161.143 E3.4817
G1 X159.492 Y160.759 E3.5077
G1 X160.21 Y160.248 E3.53655
G1 X160.851 Y159.676 E3.56468
G1 X161.423 Y159.035 E3.59281
G1 X161.934 Y158.317 E3.62166
G1 X162.317 Y157.625 E3.64755
G1 X162.652 Y156.817 E3.67619
G1 X162.879 Y156.025 E3.70317
G1 X163.037 Y155.1 E3.73389
G1 X163.08 Y154.3 E3.76012
G1 X163.037 Y153.5 E3.78635
G1 X162.88 Y152.579 E3.81694
G1 X162.648 Y151.773 E3.8444
G1 X162.328 Y150.997 E3.87188
G1 X161.909 Y150.245 E3.90007
G1 X161.439 Y149.581 E3.9267
G1 X160.853 Y148.925 E3.9555
G1 X160.2 Y148.343 E3.98414
G1 X159.492 Y147.84 E4.01257
G1 X158.8 Y147.457 E4.03847
G1 X158.007 Y147.129 E4.06656
G1 X157.186 Y146.893 E4.09453
G1 X156.275 Y146.738 E4.12479
G1 X154.746 Y146.646 E4.17494
G1 X153.457 Y146.285 E4.21877
G1 X152.174 Y145.482 E4.26832
G1 X151.939 Y145.283 E4.2784
G1 X151.181 Y144.317 E4.3186
G1 X150.625 Y143.168 E4.3604
G1 X150.388 Y141.873 E4.4035
G1 X150.388 Y134.932 E4.63075
G1 X150.671 Y133.522 E4.67784
G1 X151.354 Y132.283 E4.72416
G0 F7200 X151.783 Y132.592
G1 F3600 X152.594 Y131.709 E4.76341
G1 X153.595 Y131.122 E4.8014
G1 X154.169 Y130.892 E4.82165
G1 X155.331 Y130.678 E4.86033
G1 X157.871 Y130.812 E4.94361
G1 X159.709 Y131.073 E5.00439
G1 X162.007 Y131.615 E5.08169
G1 X164.216 Y132.37 E5.15812
G1 X166.19 Y133.259 E5.229
G1 X167.757 Y134.132 E5.28773
G1 X169.719 Y135.474 E5.36556
G1 X171.543 Y137.001 E5.44344
G1 X172.968 Y138.442 E5.50979
G1 X174.267 Y140.008 E5.57641
G1 X175.618 Y141.986 E5.65483
G1 X176.619 Y143.794 E5.72249
G1 X177.498 Y145.791 E5.79393
G1 X178.147 Y147.719 E5.86053
G1 X178.72 Y150.173 E5.94304
G1 X178.966 Y151.949 E6.00174
G1 X179.079 Y154.527 E6.08623
G1 X178.963 Y156.7 E6.15747
G1 X178.684 Y158.633 E6.22142
G1 X178.174 Y160.785 E6.29383
G1 X177.405 Y163.038 E6.37177
G1 X176.516 Y165.015 E6.44274
G1 X175.643 Y166.581 E6.50144
G1 X174.301 Y168.544 E6.57929
G1 X172.774 Y170.368 E6.65718
G1 X171.367 Y171.762 E6.72202
G1 X169.727 Y173.122 E6.79178
G1 X167.831 Y174.417 E6.86695
G1 X166.109 Y175.377 E6.9315
G1 X163.808 Y176.39 E7.01381
G1 X162.107 Y176.959 E7.07254
G1 X159.601 Y177.544 E7.15679
G1 X157.826 Y177.79 E7.21546
G1 X155.305 Y177.917 E7.2981
G1 X154.104 Y177.712 E7.33799
G1 X153.035 Y177.184 E7.37703
G1 X152.143 Y176.498 E7.41387
G1 X151.433 Y175.407 E7.45649
G1 X151.182 Y174.857 E7.47628
G1 X150.913 Y173.717 E7.51463
G1 X150.913 Y166.735 E7.74323
G1 X151.17 Y165.45 E7.78613
G1 X151.752 Y164.396 E7.82555
G1 X152.433 Y163.574 E7.8605
G1 X153.618 Y162.814 E7.90659
G1 X153.78 Y162.745 E7.91236
G1 X154.98 Y162.462 E7.95272
G1 X156.339 Y162.384 E7.99729
G1 X157.293 Y162.221 E8.02898
G1 X158.185 Y161.964 E8.05937
G1 X159.025 Y161.617 E8.08913
G1 X159.775 Y161.202 E8.11719
G1 X160.537 Y160.66 E8.14781
G1 X161.223 Y160.048 E8.1779
G1 X161.835 Y159.362 E8.208
G1 X162.377 Y158.6 E8.23862
G1 X162.792 Y157.85 E8.26668
G1 X163.146 Y156.995 E8.29698
G1 X163.394 Y156.134 E8.32632
G1 X163.559 Y155.164 E8.35853
G1 X163.605 Y154.3 E8.38686
G1 X163.559 Y153.436 E8.41519
G1 X163.393 Y152.462 E8.44753
G1 X163.147 Y151.606 E8.47669
G1 X162.8 Y150.765 E8.50648
G1 X162.359 Y149.973 E8.53616
G1 X161.844 Y149.246 E8.56533
G1 X161.229 Y148.557 E8.59557
G1 X160.527 Y147.931 E8.62636
G1 X159.775 Y147.397 E8.65656
G1 X159.025 Y146.982 E8.68462
G1 X158.177 Y146.631 E8.71467
G1 X157.303 Y146.38 E8.74444
G1 X156.339 Y146.216 E8.77646
G1 X154.835 Y146.125 E8.82579
G1 X153.67 Y145.799 E8.8654
G1 X152.452 Y145.037 E8.91244
G1 X152.318 Y144.916 E8.91835
G1 X151.631 Y144.04 E8.9548
G1 X151.128 Y143 E8.99262
G1 X150.913 Y141.827 E9.03166
G1 X150.913 Y134.985 E9.25567
G1 X151.17 Y133.704 E9.29845
G1 X151.783 Y132.592 E9.34002
G0 F7200 X152.212 Y132.901
G1 F3600 X152.929 Y132.121 E9.37471
G1 X153.79 Y131.609 E9.40751
G1 X154.315 Y131.399 E9.42602
G1 X155.365 Y131.205 E9.46098
G1 X157.797 Y131.332 E9.54071
G1 X159.635 Y131.593 E9.60149
G1 X161.838 Y132.112 E9.6756
G1 X164.001 Y132.849 E9.75041
G1 X165.934 Y133.718 E9.8198
G1 X167.501 Y134.591 E9.87853
G1 X169.422 Y135.907 E9.95477
G1 X171.17 Y137.371 E10.02942
G1 X172.564 Y138.778 E10.09426
G1 X173.833 Y140.304 E10.15924
G1 X175.184 Y142.282 E10.23767
G1 X176.138 Y144.006 E10.30218
G1 X177.017 Y146.003 E10.37362
G1 X177.649 Y147.886 E10.43865
G1 X178.2 Y150.245 E10.51796
G1 X178.446 Y152.021 E10.57666
G1 X178.555 Y154.499 E10.65787
G1 X178.443 Y156.625 E10.72757
G1 X178.164 Y158.558 E10.79152
G1 X177.677 Y160.616 E10.86076
G1 X176.926 Y162.823 E10.93708
G1 X176.057 Y164.759 E11.00656
G1 X175.184 Y166.325 E11.06526
G1 X173.868 Y168.247 E11.14153
G1 X172.404 Y169.995 E11.21618
G1 X170.997 Y171.389 E11.28102
G1 X169.431 Y172.688 E11.34764
G1 X167.535 Y173.983 E11.42281
G1 X165.897 Y174.897 E11.48423
G1 X163.641 Y175.892 E11.56495
G1 X161.94 Y176.461 E11.62368
G1 X159.529 Y177.024 E11.70474
G1 X157.754 Y177.27 E11.76341
G1 X155.34 Y177.39 E11.84254
G1 X154.267 Y177.207 E11.87818
G1 X153.313 Y176.736 E11.91301
G1 X152.534 Y176.137 E11.94519
G1 X151.911 Y175.189 E11.98233
G1 X151.681 Y174.685 E12.00046
G1 X151.438 Y173.655 E12.03511
G1 X151.438 Y166.788 E12.25994
G1 X151.669 Y165.634 E12.29847
G1 X152.19 Y164.69 E12.33378
G1 X152.785 Y163.972 E12.36431
G1 X153.901 Y163.256 E12.40772
G1 X155.057 Y162.983 E12.44661
G1 X156.403 Y162.906 E12.49075
G1 X157.41 Y162.734 E12.52419
G1 X158.355 Y162.462 E12.55639
G1 X159.25 Y162.092 E12.5881
G1 X160.058 Y161.645 E12.61833
G1 X160.864 Y161.072 E12.65071
G1 X161.595 Y160.42 E12.68278
G1 X162.247 Y159.689 E12.71485
G1 X162.82 Y158.883 E12.74723
G1 X163.267 Y158.075 E12.77746
G1 X163.644 Y157.165 E12.80971
G1 X163.907 Y156.251 E12.84085
G1 X164.081 Y155.228 E12.87482
G1 X164.131 Y154.3 E12.90525
G1 X164.081 Y153.372 E12.93568
G1 X163.906 Y152.345 E12.96979
G1 X163.645 Y151.436 E13.00075
G1 X163.273 Y150.536 E13.03263
G1 X162.807 Y149.698 E13.06403
G1 X162.253 Y148.916 E13.0954
G1 X161.601 Y148.185 E13.12747
G1 X160.854 Y147.519 E13.16024
G1 X160.058 Y146.954 E13.1922
G1 X159.25 Y146.507 E13.22243
G1 X158.355 Y146.137 E13.25414
G1 X157.411 Y145.865 E13.2863
G1 X156.403 Y145.694 E13.31978
G1 X154.925 Y145.605 E13.36826
G1 X153.883 Y145.313 E13.40369
G1 X152.731 Y144.592 E13.44818
G1 X152.079 Y143.761 E13.48276
G1 X151.631 Y142.834 E13.51647
G1 X151.438 Y141.781 E13.55152
G1 X151.438 Y135.038 E13.77229
G1 X151.669 Y133.886 E13.81076
G1 X152.212 Y132.901 E13.84758
G0 F7200 X152.641 Y133.21
G1 F3600 X153.263 Y132.533 E13.87768
G1 X153.996 Y132.092 E13.90569
G1 X154.411 Y131.915 E13.92046
G1 X155.4 Y131.732 E13.95339
G1 X157.723 Y131.852 E14.02955
G1 X159.561 Y132.113 E14.09033
G1 X161.669 Y132.609 E14.16123
G1 X163.786 Y133.328 E14.23443
G1 X165.678 Y134.177 E14.30233
G1 X167.245 Y135.05 E14.36106
G1 X169.085 Y136.31 E14.43407
G1 X170.797 Y137.741 E14.50712
G1 X172.16 Y139.114 E14.57046
G1 X173.429 Y140.64 E14.63544
G1 X174.725 Y142.536 E14.71064
G1 X175.657 Y144.218 E14.7736
G1 X176.536 Y146.215 E14.84503
G1 X177.151 Y148.053 E14.90849
G1 X177.68 Y150.317 E14.98461
G1 X177.926 Y152.093 E15.04331
G1 X178.031 Y154.472 E15.12128
G1 X177.923 Y156.55 E15.1894
G1 X177.644 Y158.483 E15.25335
G1 X177.18 Y160.447 E15.31942
G1 X176.447 Y162.608 E15.39413
G1 X175.598 Y164.503 E15.46211
G1 X174.725 Y166.069 E15.52081
G1 X173.465 Y167.91 E15.59386
G1 X172.034 Y169.622 E15.66691
G1 X170.661 Y170.985 E15.73025
G1 X169.135 Y172.254 E15.79523
G1 X167.239 Y173.549 E15.8704
G1 X165.642 Y174.438 E15.93025
G1 X163.474 Y175.394 E16.00782
G1 X161.773 Y175.963 E16.06655
G1 X159.457 Y176.504 E16.14442
G1 X157.682 Y176.75 E16.20308
G1 X155.375 Y176.863 E16.27871
G1 X154.431 Y176.702 E16.31006
G1 X153.589 Y176.286 E16.34081
G1 X152.924 Y175.775 E16.36827
G1 X152.389 Y174.971 E16.39989
G1 X152.18 Y174.513 E16.41637
G1 X151.963 Y173.593 E16.44732
G1 X151.963 Y166.841 E16.66838
G1 X152.168 Y165.818 E16.70254
G1 X152.628 Y164.984 E16.73372
G1 X153.136 Y164.371 E16.75979
G1 X154.11 Y163.746 E16.79768
G1 X155.134 Y163.504 E16.83213
G1 X156.467 Y163.428 E16.87584
G1 X157.527 Y163.247 E16.91105
G1 X158.525 Y162.96 E16.94505
G1 X159.475 Y162.567 E16.97871
G1 X160.341 Y162.088 E17.01111
G1 X161.191 Y161.484 E17.04525
G1 X161.967 Y160.792 E17.07929
G1 X162.659 Y160.016 E17.11333
G1 X163.263 Y159.166 E17.14747
G1 X163.742 Y158.3 E17.17987
G1 X164.142 Y157.335 E17.21407
G1 X164.42 Y156.368 E17.24702
G1 X164.603 Y155.292 E17.28275
G1 X164.657 Y154.3 E17.31528
G1 X164.603 Y153.308 E17.3478
G1 X164.421 Y152.237 E17.38337
G1 X164.139 Y151.258 E17.41673
G1 X163.746 Y150.307 E17.45042
G1 X163.251 Y149.417 E17.48376
G1 X162.667 Y148.591 E17.51688
G1 X161.973 Y147.813 E17.55102
G1 X161.181 Y147.107 E17.58575
G1 X160.341 Y146.511 E17.61947
G1 X159.475 Y146.032 E17.65188
G1 X158.525 Y145.639 E17.68554
G1 X157.528 Y145.352 E17.7195
G1 X156.467 Y145.172 E17.75474
G1 X155.014 Y145.084 E17.8024
G1 X154.097 Y144.828 E17.83357
G1 X153.087 Y144.195 E17.87259
G1 X152.529 Y143.484 E17.90218
G1 X152.133 Y142.666 E17.93194
G1 X151.963 Y141.736 E17.96289
G1 X151.963 Y135.091 E18.18045
G1 X152.168 Y134.068 E18.21461
G1 X152.641 Y133.21 E18.24669
G0 F7200 X153.071 Y133.517
G1 F3600 X153.596 Y132.946 E18.27208
G1 X154.267 Y132.542 E18.29773
G1 X154.565 Y132.42 E18.30827
G1 X155.435 Y132.259 E18.33724
G1 X157.649 Y132.372 E18.40982
G1 X159.487 Y132.633 E18.4706
G1 X161.501 Y133.106 E18.53833
G1 X163.571 Y133.807 E18.60989
G1 X165.422 Y134.636 E18.67629
G1 X166.989 Y135.509 E18.73502
G1 X168.749 Y136.713 E18.80484
G1 X170.425 Y138.111 E18.87629
G1 X171.756 Y139.45 E18.93811
G1 X173.025 Y140.976 E19.00309
G1 X174.266 Y142.791 E19.07507
G1 X175.176 Y144.43 E19.13645
G1 X176.055 Y146.427 E19.20789
G1 X176.653 Y148.219 E19.26974
G1 X177.16 Y150.389 E19.3427
G1 X177.406 Y152.165 E19.4014
G1 X177.507 Y154.445 E19.47612
G1 X177.403 Y156.475 E19.54267
G1 X177.124 Y158.408 E19.60661
G1 X176.683 Y160.279 E19.66955
G1 X175.968 Y162.394 E19.74265
G1 X175.139 Y164.247 E19.80911
G1 X174.266 Y165.813 E19.86781
G1 X173.062 Y167.574 E19.93765
G1 X171.664 Y169.25 E20.00911
G1 X170.325 Y170.581 E20.07092
G1 X168.799 Y171.85 E20.1359
G1 X166.984 Y173.09 E20.20787
G1 X165.387 Y173.979 E20.26771
G1 X163.307 Y174.896 E20.34214
G1 X161.606 Y175.465 E20.40086
G1 X159.385 Y175.984 E20.47554
G1 X157.61 Y176.23 E20.53421
G1 X155.41 Y176.336 E20.60632
G1 X154.594 Y176.197 E20.63342
G1 X153.867 Y175.838 E20.65997
G1 X153.313 Y175.412 E20.68285
G1 X152.826 Y174.68 E20.71163
G1 X152.691 Y174.393 E20.72202
G1 X152.488 Y173.532 E20.75098
G1 X152.488 Y166.894 E20.96831
G1 X152.667 Y166 E20.99816
G1 X153.064 Y165.28 E21.02508
G1 X153.487 Y164.77 E21.04677
G1 X154.319 Y164.236 E21.07914
G1 X155.211 Y164.025 E21.10915
G1 X156.531 Y163.95 E21.15244
G1 X157.644 Y163.76 E21.18941
G1 X158.695 Y163.458 E21.22521
G1 X159.7 Y163.042 E21.26082
G1 X160.624 Y162.531 E21.29539
G1 X161.523 Y161.892 E21.3315
G1 X162.339 Y161.164 E21.36731
G1 X163.067 Y160.348 E21.40311
G1 X163.706 Y159.449 E21.43922
G1 X164.217 Y158.525 E21.47379
G1 X164.64 Y157.505 E21.50994
G1 X164.933 Y156.485 E21.54469
G1 X165.125 Y155.356 E21.58218
G1 X165.183 Y154.3 E21.61681
G1 X165.125 Y153.244 E21.65144
G1 X164.934 Y152.121 E21.68873
G1 X164.637 Y151.088 E21.72392
G1 X164.219 Y150.078 E21.75971
G1 X163.696 Y149.136 E21.79499
G1 X163.077 Y148.261 E21.83008
G1 X162.349 Y147.445 E21.86588
G1 X161.508 Y146.695 E21.90278
G1 X160.624 Y146.068 E21.93826
G1 X159.7 Y145.557 E21.97283
G1 X158.695 Y145.141 E22.00844
G1 X157.645 Y144.839 E22.04421
G1 X156.531 Y144.65 E22.08121
G1 X155.104 Y144.564 E22.12801
G1 X154.311 Y144.342 E22.15497
G1 X153.443 Y143.798 E22.18851
G1 X152.976 Y143.203 E22.21328
G1 X152.636 Y142.501 E22.23881
G1 X152.488 Y141.691 E22.26577
G1 X152.488 Y135.144 E22.48012
G1 X152.667 Y134.25 E22.50998
G1 X153.071 Y133.517 E22.53738
G0 F7200 X153.5 Y133.826
G1 F3600 X153.931 Y133.357 E22.55823
G1 X154.538 Y132.992 E22.58142
G1 X154.713 Y132.926 E22.58755
G1 X155.47 Y132.786 E22.61275
G1 X157.575 Y132.892 E22.68176
G1 X159.413 Y133.153 E22.74254
G1 X161.38 Y133.617 E22.8087
G1 X163.357 Y134.286 E22.87704
G1 X165.166 Y135.095 E22.94192
G1 X166.733 Y135.968 E23.00065
G1 X168.413 Y137.116 E23.06727
G1 X170.053 Y138.482 E23.13715
G1 X171.352 Y139.786 E23.19741
G1 X172.621 Y141.312 E23.26239
G1 X173.807 Y143.046 E23.33117
G1 X174.695 Y144.642 E23.39097
G1 X175.574 Y146.639 E23.4624
G1 X176.155 Y148.385 E23.52265
G1 X176.64 Y150.461 E23.59245
G1 X176.886 Y152.237 E23.65115
G1 X176.983 Y154.419 E23.72266
G1 X176.883 Y156.4 E23.7876
G1 X176.604 Y158.333 E23.85155
G1 X176.172 Y160.158 E23.91295
G1 X175.489 Y162.18 E23.98283
G1 X174.68 Y163.991 E24.04777
G1 X173.807 Y165.557 E24.10647
G1 X172.629 Y167.277 E24.17472
G1 X171.293 Y168.878 E24.24299
G1 X169.989 Y170.177 E24.30325
G1 X168.463 Y171.446 E24.36823
G1 X166.729 Y172.631 E24.437
G1 X165.132 Y173.52 E24.49684
G1 X163.14 Y174.398 E24.56811
G1 X161.439 Y174.967 E24.62684
G1 X159.313 Y175.464 E24.69832
G1 X157.538 Y175.71 E24.75699
G1 X155.446 Y175.809 E24.82556
G1 X154.758 Y175.692 E24.84841
G1 X154.143 Y175.388 E24.87087
G1 X153.702 Y175.049 E24.88908
G1 X153.263 Y174.389 E24.91503
G1 X153.189 Y174.218 E24.92113
G1 X153.013 Y173.471 E24.94626
G1 X153.013 Y166.947 E25.15986
G1 X153.166 Y166.182 E25.1854
G1 X153.5 Y165.576 E25.20805
G1 X153.838 Y165.169 E25.22538
G1 X154.528 Y164.726 E25.25222
G1 X155.288 Y164.546 E25.27779
G1 X156.595 Y164.472 E25.32065
G1 X157.761 Y164.273 E25.35938
G1 X158.865 Y163.956 E25.39699
G1 X159.925 Y163.517 E25.43455
G1 X160.907 Y162.974 E25.47129
G1 X161.85 Y162.304 E25.50916
G1 X162.711 Y161.536 E25.54694
G1 X163.479 Y160.675 E25.58471
G1 X164.149 Y159.732 E25.62258
G1 X164.692 Y158.75 E25.65932
