;FLAVOR:Marlin
;TIME:2484
;Filament used: 4.0253m
;Layer height: 0.15
;MINX:138.203
;MINY:131.348
;MINZ:0.15
;MAXX:191.779
;MAXY:166.902
;MAXZ:31.8
;TARGET_MACHINE.NAME:ELEGOO NEPTUNE 4 Plus
;Generated with Cura_SteamEngine 5.10.2
;ELEGOO NEPTUNE 4 PLUS
M220 S100 ;Set the feed speed to 100%
M221 S100 ;Set the flow rate to 100%
M104 S140 ;Start heating extruder
M190 S60 ;Wait for the bed to reach print temp
G90
G28 ;home
G1 Z10 F300
G1 X115 Y0 F6000
G1 Z0 F300
M109 S210 ;Wait for extruder to reach print temp
G92 E0 ;Reset Extruder
G1 X115 Y0 Z0.4 F300 ;Move to start position
G1 X215 E30 F400 ;Draw the first line
G1 Z0.6 F120.0 ;Move to side a little
G1 X210 F3000
G92 E0 ;Reset Extruder
M82 ;absolute extrusion mode
G92 E0
G92 E0
G1 F2700 E-0.5
;LAYER_COUNT:212
;LAYER:0
M107
M204 S500
G0 F7200 X141.737 Y142.406 Z0.15
;TYPE:SKIRT
G1 F2700 E0
G1 F3600 X143.088 Y141.52 E0.0529
G1 X145.822 Y140.76 E0.1458
G1 X146.866 Y140.637 E0.18022
G1 X147.497 Y140.646 E0.20088
G1 X148.849 Y140.982 E0.24649
G1 X149.158 Y141.112 E0.25747
G1 X149.411 Y140.574 E0.27693
G1 X150.301 Y139.122 E0.33269
G1 X151.93 Y137.071 E0.41845
G1 X153.37 Y135.674 E0.48413
G1 X154.806 Y134.557 E0.5437
G1 X156.861 Y133.32 E0.62223
G1 X158.771 Y132.474 E0.69062
G1 X161.011 Y131.794 E0.76726
G1 X162.604 Y131.504 E0.82028
G1 X165.354 Y131.348 E0.91046
G1 X167.298 Y131.494 E0.97429
G1 X169.504 Y131.924 E1.04787
G1 X171.311 Y132.505 E1.11001
G1 X173.572 Y133.549 E1.19155
G1 X175.374 Y134.685 E1.26129
G1 X176.759 Y135.787 E1.31924
G1 X178.529 Y137.588 E1.40192
G1 X179.707 Y139.132 E1.4655
G1 X180.714 Y140.807 E1.52949
G1 X180.84 Y141.078 E1.53927
G1 X181.907 Y140.744 E1.57588
G1 X182.981 Y140.603 E1.61135
G1 X184.111 Y140.714 E1.64852
G1 X186.692 Y141.437 E1.73628
G1 X188.103 Y142.221 E1.78913
G1 X190.192 Y144.426 E1.88857
G1 X190.934 Y145.711 E1.93715
G1 X191.667 Y148.224 E2.02286
G1 X191.779 Y149.371 E2.06059
G1 X191.595 Y150.651 E2.10293
G1 X190.968 Y152.897 E2.17928
G1 X190.241 Y154.243 E2.22936
G1 X188.162 Y156.322 E2.32562
G1 X186.875 Y157.14 E2.37555
G1 X184.103 Y157.918 E2.46981
G1 X182.842 Y158.032 E2.51127
G1 X181.856 Y157.864 E2.54402
G1 X180.931 Y157.592 E2.57558
G1 X180.703 Y157.49 E2.58376
G1 X179.699 Y159.128 E2.64666
G1 X178.07 Y161.179 E2.73242
G1 X176.63 Y162.576 E2.7981
G1 X175.194 Y163.693 E2.85767
G1 X173.139 Y164.93 E2.9362
G1 X171.172 Y165.798 E3.00659
G1 X169.224 Y166.396 E3.07331
G1 X166.999 Y166.788 E3.14728
G1 X164.646 Y166.902 E3.2244
G1 X162.702 Y166.756 E3.28823
G1 X160.496 Y166.326 E3.36182
G1 X158.689 Y165.745 E3.42396
G1 X156.428 Y164.701 E3.5055
G1 X154.626 Y163.565 E3.57524
G1 X153.241 Y162.463 E3.63319
G1 X151.471 Y160.662 E3.71586
G1 X150.293 Y159.117 E3.77947
G1 X149.351 Y157.543 E3.83953
G1 X147.946 Y157.937 E3.88731
G1 X146.689 Y158.05 E3.92863
G1 X145.607 Y157.856 E3.96462
G1 X143.362 Y157.202 E4.04117
G1 X142.048 Y156.481 E4.09025
G1 X139.777 Y154.21 E4.1954
G1 X139.053 Y152.897 E4.24449
G1 X138.341 Y150.475 E4.32714
G1 X138.203 Y149.256 E4.36731
G1 X138.394 Y148.023 E4.40816
G1 X139.044 Y145.796 E4.48411
G1 X139.718 Y144.533 E4.53098
G1 X141.737 Y142.406 E4.627
G0 F7200 X142.075 Y142.812
G1 F3600 X143.307 Y142.004 E4.67524
G1 X145.963 Y141.266 E4.76549
G1 X146.859 Y141.162 E4.79502
G1 X147.431 Y141.17 E4.81375
G1 X148.722 Y141.491 E4.85731
G1 X149.417 Y141.806 E4.88229
G1 X149.859 Y140.848 E4.91683
G1 X150.749 Y139.396 E4.97259
G1 X152.296 Y137.448 E5.05403
G1 X153.736 Y136.051 E5.11972
G1 X155.077 Y135.007 E5.17536
G1 X157.132 Y133.77 E5.25389
G1 X158.983 Y132.954 E5.32012
G1 X161.105 Y132.311 E5.39272
G1 X162.698 Y132.021 E5.44573
G1 X165.315 Y131.872 E5.53155
G1 X167.259 Y132.018 E5.59538
G1 X169.344 Y132.424 E5.66492
G1 X171.092 Y132.982 E5.725
G1 X173.293 Y133.994 E5.80431
G1 X175.047 Y135.096 E5.87213
G1 X176.432 Y136.198 E5.93008
G1 X178.112 Y137.907 E6.00854
G1 X179.257 Y139.403 E6.07022
G1 X180.264 Y141.078 E6.13421
G1 X180.578 Y141.773 E6.15918
G1 X180.842 Y141.628 E6.16904
G1 X182.018 Y141.259 E6.2094
G1 X182.989 Y141.132 E6.24146
G1 X184.013 Y141.232 E6.27514
G1 X186.493 Y141.927 E6.35947
G1 X187.778 Y142.641 E6.4076
G1 X189.768 Y144.741 E6.50232
G1 X190.448 Y145.919 E6.54685
G1 X191.15 Y148.327 E6.62897
G1 X191.251 Y149.356 E6.66282
G1 X191.089 Y150.51 E6.70098
G1 X190.478 Y152.699 E6.77539
G1 X189.814 Y153.928 E6.82112
G1 X187.833 Y155.909 E6.91285
G1 X186.66 Y156.655 E6.95836
G1 X184.006 Y157.399 E7.0486
G1 X182.862 Y157.503 E7.08621
G1 X182.004 Y157.36 E7.11469
G1 X181.079 Y157.088 E7.14626
G1 X180.433 Y156.777 E7.16973
G1 X180.141 Y157.402 E7.19232
G1 X179.251 Y158.854 E7.24808
G1 X177.704 Y160.802 E7.32952
G1 X176.264 Y162.199 E7.39521
G1 X174.923 Y163.243 E7.45085
G1 X172.868 Y164.48 E7.52938
G1 X171.018 Y165.296 E7.59558
G1 X169.07 Y165.894 E7.66229
G1 X166.973 Y166.264 E7.73201
G1 X164.685 Y166.378 E7.80701
G1 X162.741 Y166.232 E7.87084
G1 X160.656 Y165.826 E7.94039
G1 X158.908 Y165.268 E8.00046
G1 X156.707 Y164.256 E8.07978
G1 X154.953 Y163.154 E8.1476
G1 X153.568 Y162.052 E8.20554
G1 X151.888 Y160.343 E8.28401
G1 X150.743 Y158.847 E8.34569
G1 X149.707 Y157.116 E8.41173
G1 X149.57 Y156.81 E8.42271
G1 X149.115 Y157.064 E8.43977
G1 X147.85 Y157.418 E8.48278
G1 X146.712 Y157.521 E8.52019
G1 X145.754 Y157.352 E8.55204
G1 X143.564 Y156.714 E8.62672
G1 X142.365 Y156.056 E8.6715
G1 X140.201 Y153.892 E8.7717
G1 X139.541 Y152.695 E8.81645
G1 X138.858 Y150.371 E8.89576
G1 X138.733 Y149.265 E8.9322
G1 X138.898 Y148.17 E8.96846
G1 X139.533 Y145.994 E9.04267
G1 X140.147 Y144.843 E9.08538
G1 X142.075 Y142.812 E9.17707
G0 F7200 X142.413 Y143.218
G1 F3600 X143.526 Y142.488 E9.22065
G1 X146.063 Y141.783 E9.30686
G1 X146.919 Y141.684 E9.33507
G1 X147.365 Y141.694 E9.34967
G1 X148.547 Y141.988 E9.38955
G1 X149.368 Y142.36 E9.41906
G1 X149.649 Y142.56 E9.43036
G1 X150.307 Y141.122 E9.48213
G1 X151.197 Y139.67 E9.53789
G1 X152.662 Y137.825 E9.61502
G1 X154.102 Y136.428 E9.68071
G1 X155.399 Y135.422 E9.73445
G1 X157.402 Y134.22 E9.81093
G1 X159.136 Y133.456 E9.87297
G1 X161.199 Y132.828 E9.94357
G1 X162.792 Y132.538 E9.99659
G1 X165.276 Y132.396 E10.07805
G1 X167.22 Y132.542 E10.14187
G1 X169.185 Y132.924 E10.20741
G1 X170.873 Y133.459 E10.26539
G1 X173.014 Y134.439 E10.34248
G1 X174.72 Y135.507 E10.40838
G1 X176.105 Y136.609 E10.46632
G1 X177.696 Y138.227 E10.54062
G1 X178.807 Y139.674 E10.60035
G1 X179.814 Y141.349 E10.66434
G1 X180.345 Y142.536 E10.70691
G1 X180.999 Y142.129 E10.73213
G1 X182.129 Y141.775 E10.7709
G1 X183.002 Y141.66 E10.79973
G1 X183.91 Y141.749 E10.8296
G1 X186.294 Y142.417 E10.91066
G1 X187.453 Y143.061 E10.95407
G1 X189.344 Y145.056 E11.04407
G1 X189.962 Y146.127 E11.08455
G1 X190.633 Y148.43 E11.16309
G1 X190.723 Y149.344 E11.19316
G1 X190.583 Y150.369 E11.22703
G1 X189.987 Y152.503 E11.29957
G1 X189.388 Y153.612 E11.34084
G1 X187.504 Y155.496 E11.42807
G1 X186.442 Y156.171 E11.46927
G1 X183.914 Y156.88 E11.55523
G1 X182.88 Y156.974 E11.58922
G1 X182.152 Y156.856 E11.61337
G1 X181.267 Y156.596 E11.64357
G1 X180.458 Y156.206 E11.67297
G1 X180.209 Y156.008 E11.68339
G1 X179.693 Y157.128 E11.72376
G1 X178.803 Y158.58 E11.77952
G1 X177.338 Y160.425 E11.85665
G1 X175.898 Y161.822 E11.92234
G1 X174.601 Y162.828 E11.97608
G1 X172.598 Y164.03 E12.05256
G1 X170.864 Y164.794 E12.1146
G1 X168.916 Y165.392 E12.18132
G1 X166.883 Y165.747 E12.24889
G1 X164.724 Y165.854 E12.31966
G1 X162.78 Y165.708 E12.38349
G1 X160.815 Y165.326 E12.44903
G1 X159.127 Y164.791 E12.507
G1 X156.986 Y163.811 E12.58409
G1 X155.28 Y162.743 E12.64999
G1 X153.895 Y161.641 E12.70794
G1 X152.304 Y160.023 E12.78223
G1 X151.193 Y158.576 E12.84196
G1 X150.186 Y156.901 E12.90595
G1 X149.805 Y156.053 E12.93639
G1 X148.973 Y156.558 E12.96825
G1 X147.752 Y156.9 E13.00977
G1 X146.733 Y156.992 E13.04326
G1 X145.901 Y156.848 E13.07091
G1 X143.766 Y156.226 E13.14372
G1 X142.682 Y155.631 E13.1842
G1 X140.625 Y153.574 E13.27945
G1 X140.029 Y152.493 E13.31986
G1 X139.375 Y150.267 E13.39582
G1 X139.262 Y149.272 E13.42861
G1 X139.402 Y148.317 E13.46021
G1 X140.022 Y146.192 E13.53268
G1 X140.576 Y145.153 E13.57123
G1 X142.413 Y143.218 E13.65859
G0 F7200 X142.754 Y143.622
G1 F3600 X143.745 Y142.972 E13.69739
G1 X146.163 Y142.3 E13.77956
G1 X146.979 Y142.206 E13.80645
G1 X147.298 Y142.218 E13.8169
G1 X148.372 Y142.485 E13.85314
G1 X149.151 Y142.838 E13.88114
G1 X149.853 Y143.381 E13.91019
G1 X150.755 Y141.396 E13.98158
G1 X151.645 Y139.944 E14.03734
G1 X153.028 Y138.201 E14.11019
G1 X154.424 Y136.843 E14.17395
G1 X155.721 Y135.837 E14.22769
G1 X157.615 Y134.7 E14.30002
G1 X159.29 Y133.958 E14.36
G1 X161.293 Y133.345 E14.42858
G1 X162.886 Y133.055 E14.48159
G1 X165.237 Y132.92 E14.55869
G1 X167.181 Y133.066 E14.62252
G1 X169.027 Y133.425 E14.68409
G1 X170.655 Y133.937 E14.73996
G1 X172.736 Y134.885 E14.81483
G1 X174.393 Y135.918 E14.87876
G1 X175.778 Y137.02 E14.93671
G1 X177.28 Y138.548 E15.00686
G1 X178.357 Y139.945 E15.06461
G1 X179.364 Y141.62 E15.1286
G1 X180.156 Y143.407 E15.1926
G1 X180.562 Y143.02 E15.21096
G1 X181.222 Y142.609 E15.23642
G1 X182.245 Y142.289 E15.27151
G1 X183.011 Y142.188 E15.29681
G1 X183.807 Y142.266 E15.32299
G1 X186.095 Y142.907 E15.40079
G1 X187.128 Y143.481 E15.43948
G1 X188.92 Y145.371 E15.52475
G1 X189.476 Y146.335 E15.56119
G1 X190.116 Y148.532 E15.63611
G1 X190.195 Y149.331 E15.66239
G1 X190.077 Y150.228 E15.69202
G1 X189.496 Y152.307 E15.76269
G1 X188.962 Y153.296 E15.79949
G1 X187.175 Y155.083 E15.88223
G1 X186.227 Y155.686 E15.91902
G1 X183.816 Y156.362 E16.001
G1 X182.899 Y156.445 E16.03114
G1 X182.3 Y156.352 E16.05099
G1 X181.455 Y156.104 E16.07982
G1 X180.686 Y155.733 E16.10778
G1 X180.031 Y155.134 E16.13684
G1 X179.245 Y156.854 E16.19875
G1 X178.355 Y158.306 E16.25451
G1 X176.972 Y160.049 E16.32736
G1 X175.576 Y161.407 E16.39112
G1 X174.279 Y162.413 E16.44486
G1 X172.385 Y163.55 E16.51719
G1 X170.71 Y164.292 E16.57717
G1 X168.762 Y164.89 E16.64389
G1 X166.856 Y165.223 E16.70723
G1 X164.763 Y165.33 E16.77585
G1 X162.819 Y165.184 E16.83968
G1 X160.973 Y164.825 E16.90125
G1 X159.345 Y164.313 E16.95712
G1 X157.264 Y163.365 E17.03199
G1 X155.607 Y162.332 E17.09592
G1 X154.222 Y161.23 E17.15387
G1 X152.72 Y159.702 E17.22402
G1 X151.643 Y158.305 E17.28177
G1 X150.636 Y156.63 E17.34576
G1 X149.983 Y155.159 E17.39845
G1 X149.543 Y155.598 E17.4188
G1 X148.764 Y156.071 E17.44864
G1 X147.654 Y156.382 E17.48638
G1 X146.755 Y156.463 E17.51594
G1 X146.048 Y156.344 E17.53941
G1 X143.968 Y155.738 E17.61034
G1 X142.999 Y155.206 E17.64653
G1 X141.049 Y153.256 E17.73682
G1 X140.517 Y152.291 E17.7729
G1 X139.892 Y150.163 E17.84551
G1 X139.792 Y149.28 E17.87461
G1 X139.906 Y148.464 E17.90159
G1 X140.511 Y146.39 E17.97232
G1 X141.004 Y145.465 E18.00664
G1 X142.754 Y143.622 E18.08985
G0 F7200 X143.095 Y144.026
G1 F3600 X143.964 Y143.456 E18.12387
G1 X146.263 Y142.817 E18.202
G1 X147.039 Y142.728 E18.22757
G1 X147.226 Y142.741 E18.23371
G1 X148.199 Y142.983 E18.26653
G1 X148.875 Y143.289 E18.29083
G1 X149.472 Y143.75 E18.31552
G1 X150.022 Y144.544 E18.34715
G1 X150.291 Y143.685 E18.37662
G1 X151.203 Y141.67 E18.44903
G1 X152.093 Y140.218 E18.50479
G1 X153.395 Y138.577 E18.57337
G1 X154.746 Y137.258 E18.63519
G1 X156.043 Y136.252 E18.68893
G1 X157.828 Y135.18 E18.7571
G1 X159.503 Y134.438 E18.81708
G1 X161.387 Y133.862 E18.88159
G1 X162.98 Y133.572 E18.9346
G1 X165.199 Y133.444 E19.00737
G1 X167.082 Y133.582 E19.06919
G1 X168.869 Y133.926 E19.12877
G1 X170.497 Y134.438 E19.18464
G1 X172.459 Y135.331 E19.25522
G1 X174.066 Y136.329 E19.31715
G1 X175.451 Y137.431 E19.3751
G1 X176.865 Y138.869 E19.44113
G1 X177.907 Y140.216 E19.49689
G1 X178.914 Y141.891 E19.56088
G1 X179.731 Y143.744 E19.62718
G1 X179.987 Y144.592 E19.65618
G1 X180.114 Y144.295 E19.66676
G1 X180.39 Y143.915 E19.68213
G1 X180.839 Y143.466 E19.70292
G1 X181.443 Y143.09 E19.72622
G1 X182.356 Y142.804 E19.75754
G1 X183.02 Y142.717 E19.77947
G1 X183.71 Y142.784 E19.80216
G1 X185.896 Y143.397 E19.87649
G1 X186.803 Y143.901 E19.91047
G1 X188.496 Y145.686 E19.99101
G1 X188.99 Y146.543 E20.0234
G1 X189.599 Y148.634 E20.0947
G1 X189.667 Y149.321 E20.11731
G1 X189.571 Y150.087 E20.14258
G1 X189.006 Y152.109 E20.21132
G1 X188.535 Y152.981 E20.24377
G1 X186.846 Y154.67 E20.32197
G1 X186.012 Y155.201 E20.35434
G1 X183.719 Y155.844 E20.43231
G1 X182.913 Y155.916 E20.45881
G1 X182.448 Y155.848 E20.47419
G1 X181.643 Y155.612 E20.50166
G1 X180.982 Y155.293 E20.52569
G1 X180.345 Y154.71 E20.55396
G1 X180.063 Y154.299 E20.57028
G1 X179.904 Y153.942 E20.58307
G1 X179.686 Y154.624 E20.60652
G1 X178.797 Y156.58 E20.67686
G1 X177.907 Y158.032 E20.73262
G1 X176.605 Y159.673 E20.8012
G1 X175.254 Y160.992 E20.86302
G1 X173.957 Y161.998 E20.91676
G1 X172.172 Y163.07 E20.98493
G1 X170.497 Y163.812 E21.04491
G1 X168.609 Y164.388 E21.10954
G1 X166.828 Y164.699 E21.16873
G1 X164.801 Y164.806 E21.23519
G1 X162.918 Y164.668 E21.297
G1 X161.131 Y164.324 E21.35659
G1 X159.503 Y163.812 E21.41246
G1 X157.541 Y162.919 E21.48304
G1 X155.934 Y161.921 E21.54497
G1 X154.549 Y160.819 E21.60292
G1 X153.135 Y159.381 E21.66895
G1 X152.093 Y158.034 E21.72471
G1 X151.086 Y156.359 E21.7887
G1 X150.269 Y154.506 E21.855
G1 X150.106 Y153.966 E21.87347
G1 X149.959 Y154.323 E21.88611
G1 X149.637 Y154.762 E21.90393
G1 X149.217 Y155.181 E21.92336
G1 X148.552 Y155.585 E21.94883
G1 X147.558 Y155.863 E21.98262
G1 X146.774 Y155.934 E22.0084
G1 X146.195 Y155.84 E22.0276
G1 X144.17 Y155.25 E22.09666
G1 X143.316 Y154.781 E22.12856
G1 X141.473 Y152.938 E22.21389
G1 X141.005 Y152.089 E22.24563
G1 X140.409 Y150.059 E22.3149
G1 X140.321 Y149.284 E22.34044
G1 X140.41 Y148.611 E22.36266
G1 X141 Y146.588 E22.43166
G1 X141.432 Y145.777 E22.46174
G1 X143.095 Y144.026 E22.5408
G0 F7200 X143.436 Y144.43
G1 F3600 X144.183 Y143.94 E22.57005
G1 X146.363 Y143.334 E22.64413
G1 X147.099 Y143.25 E22.66839
G1 X148.027 Y143.481 E22.6997
G1 X148.602 Y143.741 E22.72036
G1 X149.087 Y144.116 E22.74043
G1 X149.51 Y144.726 E22.76474
G1 X149.724 Y145.33 E22.78571
G1 X149.745 Y146.016 E22.80819
G1 X149.519 Y147.247 E22.84916
G1 X149.407 Y149.129 E22.91089
G1 X149.52 Y151.001 E22.97229
G1 X149.807 Y152.575 E23.02467
G1 X149.78 Y153.305 E23.04859
G1 X149.532 Y154.018 E23.07331
G1 X149.266 Y154.39 E23.08828
G1 X148.889 Y154.766 E23.10571
G1 X148.342 Y155.098 E23.12666
G1 X147.462 Y155.344 E23.15658
G1 X146.792 Y155.405 E23.1786
G1 X146.342 Y155.336 E23.19351
G1 X144.372 Y154.762 E23.26069
G1 X143.633 Y154.356 E23.2883
G1 X141.897 Y152.62 E23.36868
G1 X141.493 Y151.887 E23.39608
G1 X140.926 Y149.955 E23.462
G1 X140.85 Y149.287 E23.48401
G1 X140.914 Y148.758 E23.50146
G1 X141.489 Y146.788 E23.56865
G1 X141.861 Y146.088 E23.5946
G1 X143.436 Y144.43 E23.66947
G1 F2700 E23.16947
G0 F7200 X150.317 Y145.363
G1 F2700 E23.66947
G1 F3600 X150.792 Y143.842 E23.72164
G1 X151.651 Y141.944 E23.78985
G1 X152.541 Y140.492 E23.84561
G1 X153.762 Y138.952 E23.90996
G1 X155.068 Y137.673 E23.96981
G1 X156.365 Y136.667 E24.02355
G1 X158.041 Y135.66 E24.08756
G1 X159.716 Y134.918 E24.14754
G1 X161.481 Y134.379 E24.20796
G1 X163.074 Y134.089 E24.26098
G1 X165.162 Y133.968 E24.32945
G1 X166.983 Y134.098 E24.38923
G1 X168.77 Y134.442 E24.44881
G1 X170.28 Y134.916 E24.50062
G1 X172.183 Y135.778 E24.56902
G1 X173.739 Y136.74 E24.62892
G1 X175.124 Y137.842 E24.68687
G1 X176.45 Y139.191 E24.7488
G1 X177.457 Y140.487 E24.80253
G1 X178.464 Y142.162 E24.86652
G1 X179.228 Y143.896 E24.92856
G1 X179.744 Y145.605 E24.98701
G1 X180.044 Y147.269 E25.04236
G1 X180.157 Y149.26 E25.10766
G1 X180.062 Y150.828 E25.15909
G1 X179.68 Y152.903 E25.22816
G1 X179.208 Y154.408 E25.27981
G1 X178.349 Y156.306 E25.34802
G1 X177.459 Y157.758 E25.40377
G1 X176.238 Y159.298 E25.46812
G1 X174.932 Y160.577 E25.52797
G1 X173.635 Y161.583 E25.58171
G1 X171.959 Y162.59 E25.64572
G1 X170.284 Y163.332 E25.7057
G1 X168.518 Y163.871 E25.76616
G1 X166.799 Y164.175 E25.82331
G1 X164.838 Y164.282 E25.88761
G1 X163.017 Y164.152 E25.94738
G1 X161.23 Y163.808 E26.00696
G1 X159.72 Y163.334 E26.05878
G1 X157.817 Y162.472 E26.12718
G1 X156.261 Y161.51 E26.18707
G1 X154.876 Y160.408 E26.24502
