;FLAVOR:Marlin
;TIME:267
;Filament used: 0.148155m
;Layer height: 0.15
;MINX:154.649
;MINY:154.718
;MINZ:0.15
;MAXX:175.359
;MAXY:175.401
;MAXZ:5.25
;TARGET_MACHINE.NAME:ELEGOO NEPTUNE 4 Plus
;Generated with Cura_SteamEngine 5.10.2
;ELEGOO NEPTUNE 4 PLUS
M220 S100 ;Set the feed speed to 100%
M221 S100 ;Set the flow rate to 100%
M104 S140 ;Start heating extruder
M190 S60 ;Wait for the bed to reach print temp
G90
G28 ;home
G1 Z10 F300
G1 X115 Y0 F6000
G1 Z0 F300
M109 S210 ;Wait for extruder to reach print temp
G92 E0 ;Reset Extruder
G1 X115 Y0 Z0.4 F300 ;Move to start position
G1 X215 E30 F400 ;Draw the first line
G1 Z0.6 F120.0 ;Move to side a little
G1 X210 F3000
G92 E0 ;Reset Extruder
M82 ;absolute extrusion mode
G92 E0
G92 E0
G1 F2700 E-0.5
;LAYER_COUNT:35
;LAYER:0
M107
M204 S500
G0 F7200 X157.675 Y157.759 Z0.15
;TYPE:SKIRT
G1 F2700 E0
G1 F3600 X158.403 Y157.067 E0.03288
G1 X158.928 Y156.761 E0.05278
G1 X159.459 Y156.275 E0.07635
G1 X161.196 Y155.44 E0.13945
G1 X162.232 Y155.068 E0.17549
G1 X162.838 Y155.005 E0.19543
G1 X163.495 Y154.786 E0.21811
G1 X165.108 Y154.718 E0.27097
G1 X166.479 Y154.796 E0.31593
G1 X167.081 Y154.987 E0.3366
G1 X167.804 Y155.057 E0.36039
G1 X169.612 Y155.803 E0.42442
G1 X170.559 Y156.316 E0.45968
G1 X171.01 Y156.718 E0.47946
G1 X171.63 Y157.067 E0.50276
G1 X173.01 Y158.519 E0.56834
G1 X173.643 Y159.344 E0.60239
G1 X173.888 Y159.897 E0.62219
G1 X174.297 Y160.449 E0.64468
G1 X174.947 Y162.254 E0.7075
G1 X175.201 Y163.28 E0.7421
G1 X175.214 Y164.008 E0.76594
G1 X175.359 Y164.765 E0.79118
G1 X175.221 Y166.553 E0.84989
G1 X175.025 Y167.634 E0.88586
G1 X174.779 Y168.194 E0.90588
G1 X174.641 Y168.876 E0.92867
G1 X173.856 Y170.366 E0.98381
G1 X173.119 Y171.478 E1.02748
G1 X172.611 Y171.938 E1.04992
G1 X172.139 Y172.558 E1.07543
G1 X170.919 Y173.518 E1.12626
G1 X169.785 Y174.234 E1.17017
G1 X169.206 Y174.422 E1.1901
G1 X168.587 Y174.788 E1.21364
G1 X166.626 Y175.254 E1.27964
G1 X165.641 Y175.38 E1.31215
G1 X165.049 Y175.322 E1.33162
G1 X164.321 Y175.401 E1.3556
G1 X162.239 Y175.007 E1.42497
G1 X161.363 Y174.725 E1.4551
G1 X160.874 Y174.457 E1.47336
G1 X160.177 Y174.235 E1.49731
G1 X158.613 Y173.171 E1.55924
G1 X157.759 Y172.433 E1.5962
G1 X157.361 Y171.91 E1.61771
G1 X156.789 Y171.37 E1.64347
G1 X155.835 Y169.824 E1.70295
G1 X155.365 Y168.844 E1.73853
G1 X155.229 Y168.206 E1.75989
G1 X154.931 Y167.5 E1.78498
G1 X154.691 Y165.783 E1.84174
G1 X154.649 Y164.64 E1.87919
G1 X154.776 Y164.017 E1.9
G1 X154.769 Y163.305 E1.92332
G1 X155.284 Y161.523 E1.98405
G1 X155.727 Y160.427 E2.02275
G1 X156.095 Y159.924 E2.04316
G1 X156.369 Y159.295 E2.06562
G1 X157.675 Y157.759 E2.13163
G0 F7200 X158.037 Y158.14
G1 F3600 X158.723 Y157.488 E2.16262
G1 X159.239 Y157.187 E2.18218
G1 X159.754 Y156.716 E2.20502
G1 X161.374 Y155.934 E2.26392
G1 X162.351 Y155.583 E2.29791
G1 X162.95 Y155.521 E2.31763
G1 X163.589 Y155.308 E2.33968
G1 X165.13 Y155.243 E2.39018
G1 X166.384 Y155.316 E2.4313
G1 X166.979 Y155.505 E2.45174
G1 X167.677 Y155.573 E2.4747
G1 X169.362 Y156.265 E2.53434
G1 X170.257 Y156.75 E2.56767
G1 X170.703 Y157.147 E2.58722
G1 X171.304 Y157.486 E2.60981
G1 X172.594 Y158.839 E2.67102
G1 X173.188 Y159.613 E2.70296
G1 X173.431 Y160.161 E2.72259
G1 X173.828 Y160.698 E2.74445
G1 X174.437 Y162.38 E2.80302
G1 X174.677 Y163.35 E2.83574
G1 X174.69 Y164.063 E2.85908
G1 X174.83 Y164.797 E2.88355
G1 X174.704 Y166.459 E2.93812
G1 X174.519 Y167.48 E2.97209
G1 X174.275 Y168.035 E2.99194
G1 X174.141 Y168.697 E3.01405
G1 X173.391 Y170.121 E3.06675
G1 X172.719 Y171.132 E3.10649
G1 X172.223 Y171.58 E3.12838
G1 X171.762 Y172.186 E3.15331
G1 X170.594 Y173.105 E3.20196
G1 X169.559 Y173.755 E3.24198
G1 X168.988 Y173.941 E3.26164
G1 X168.389 Y174.295 E3.28442
G1 X166.559 Y174.733 E3.34603
G1 X165.63 Y174.852 E3.37669
G1 X165.044 Y174.794 E3.39597
G1 X164.342 Y174.871 E3.41909
G1 X162.4 Y174.507 E3.48378
G1 X161.568 Y174.239 E3.5124
G1 X161.081 Y173.972 E3.53058
G1 X160.41 Y173.759 E3.55363
G1 X158.956 Y172.774 E3.61113
G1 X158.143 Y172.072 E3.6463
G1 X157.752 Y171.557 E3.66747
G1 X157.201 Y171.037 E3.69228
G1 X156.282 Y169.548 E3.74957
G1 X155.865 Y168.672 E3.78133
G1 X155.731 Y168.045 E3.80232
G1 X155.441 Y167.359 E3.82671
G1 X155.216 Y165.764 E3.87944
G1 X155.176 Y164.681 E3.91493
G1 X155.302 Y164.067 E3.93545
G1 X155.295 Y163.378 E3.95801
G1 X155.771 Y161.72 E4.01448
G1 X156.19 Y160.684 E4.05107
G1 X156.552 Y160.189 E4.07115
G1 X156.819 Y159.576 E4.09304
G1 X158.037 Y158.14 E4.15469
G0 F7200 X158.437 Y158.48
G1 F3600 X159.041 Y157.91 E4.18188
G1 X159.55 Y157.613 E4.20118
G1 X160.051 Y157.155 E4.2234
G1 X161.552 Y156.428 E4.278
G1 X162.47 Y156.098 E4.30994
G1 X163.062 Y156.037 E4.32943
G1 X163.683 Y155.83 E4.35086
G1 X165.152 Y155.768 E4.399
G1 X166.289 Y155.836 E4.43629
G1 X166.876 Y156.023 E4.45646
G1 X167.549 Y156.088 E4.4786
G1 X169.162 Y156.751 E4.53569
G1 X169.955 Y157.184 E4.56528
G1 X170.396 Y157.576 E4.58459
G1 X170.978 Y157.905 E4.60648
G1 X172.177 Y159.159 E4.66329
G1 X172.734 Y159.885 E4.69325
G1 X172.974 Y160.425 E4.71259
G1 X173.361 Y160.949 E4.73392
G1 X173.927 Y162.506 E4.78816
G1 X174.153 Y163.42 E4.81899
G1 X174.166 Y164.118 E4.84184
G1 X174.301 Y164.826 E4.86544
G1 X174.187 Y166.365 E4.91597
G1 X174.013 Y167.326 E4.94794
G1 X173.771 Y167.876 E4.96762
G1 X173.641 Y168.518 E4.98906
G1 X172.926 Y169.876 E5.03931
G1 X172.318 Y170.788 E5.0752
G1 X171.833 Y171.225 E5.09657
G1 X171.385 Y171.814 E5.1208
G1 X170.269 Y172.692 E5.16729
G1 X169.335 Y173.276 E5.20335
G1 X168.769 Y173.46 E5.22284
G1 X168.191 Y173.802 E5.24483
G1 X166.437 Y174.222 E5.30388
G1 X165.62 Y174.324 E5.33084
G1 X165.038 Y174.266 E5.34998
G1 X164.361 Y174.341 E5.37229
G1 X162.561 Y174.007 E5.43222
G1 X161.773 Y173.753 E5.45933
G1 X161.284 Y173.485 E5.47759
G1 X160.642 Y173.282 E5.49963
G1 X159.251 Y172.339 E5.55465
G1 X158.53 Y171.713 E5.58592
G1 X158.145 Y171.207 E5.60673
G1 X157.613 Y170.704 E5.6307
G1 X156.729 Y169.272 E5.6858
G1 X156.365 Y168.5 E5.71375
G1 X156.234 Y167.886 E5.7343
G1 X155.952 Y167.22 E5.75798
G1 X155.741 Y165.744 E5.8068
G1 X155.703 Y164.722 E5.84028
G1 X155.827 Y164.116 E5.86053
G1 X155.821 Y163.45 E5.88234
G1 X156.258 Y161.917 E5.93453
G1 X156.653 Y160.941 E5.969
G1 X157.011 Y160.452 E5.98884
G1 X157.27 Y159.856 E6.01012
G1 X158.437 Y158.48 E6.06919
G0 F7200 X158.798 Y158.862
G1 F3600 X159.36 Y158.331 E6.0945
G1 X159.864 Y158.037 E6.11361
G1 X160.348 Y157.595 E6.13507
G1 X161.781 Y156.901 E6.1872
G1 X162.59 Y156.613 E6.21531
G1 X163.174 Y156.553 E6.23453
G1 X163.777 Y156.352 E6.25534
G1 X165.174 Y156.293 E6.30112
G1 X166.192 Y156.356 E6.33452
G1 X166.772 Y156.541 E6.35445
G1 X167.421 Y156.603 E6.37579
G1 X168.962 Y157.237 E6.43035
G1 X169.651 Y157.616 E6.4561
G1 X170.091 Y158.007 E6.47537
G1 X170.651 Y158.324 E6.49644
G1 X171.76 Y159.479 E6.54886
G1 X172.28 Y160.157 E6.57684
G1 X172.517 Y160.69 E6.59593
G1 X172.894 Y161.2 E6.6167
G1 X173.417 Y162.632 E6.66661
G1 X173.629 Y163.49 E6.69555
G1 X173.642 Y164.173 E6.71791
G1 X173.772 Y164.856 E6.74068
G1 X173.67 Y166.272 E6.78716
G1 X173.507 Y167.174 E6.81717
G1 X173.267 Y167.719 E6.83667
G1 X173.141 Y168.341 E6.85744
G1 X172.489 Y169.585 E6.90343
G1 X171.917 Y170.443 E6.93719
G1 X171.443 Y170.87 E6.95808
G1 X171.008 Y171.442 E6.9816
G1 X169.944 Y172.279 E7.02593
G1 X169.111 Y172.797 E7.05804
G1 X168.552 Y172.979 E7.07729
G1 X167.991 Y173.31 E7.09862
G1 X166.372 Y173.701 E7.15315
G1 X165.611 Y173.796 E7.17826
G1 X165.032 Y173.738 E7.19731
G1 X164.378 Y173.811 E7.21885
G1 X162.722 Y173.507 E7.27398
G1 X161.98 Y173.268 E7.2995
G1 X161.49 Y172.999 E7.3178
G1 X160.872 Y172.804 E7.33902
G1 X159.595 Y171.942 E7.38946
G1 X158.915 Y171.352 E7.41894
G1 X158.538 Y170.856 E7.43933
G1 X158.022 Y170.369 E7.46256
G1 X157.204 Y169.048 E7.51344
G1 X156.865 Y168.329 E7.53946
G1 X156.736 Y167.725 E7.55968
G1 X156.463 Y167.079 E7.58264
G1 X156.266 Y165.724 E7.62747
G1 X156.23 Y164.763 E7.65896
G1 X156.353 Y164.166 E7.67892
G1 X156.347 Y163.521 E7.70003
G1 X156.745 Y162.114 E7.74791
G1 X157.116 Y161.198 E7.78026
G1 X157.468 Y160.716 E7.79981
G1 X157.72 Y160.137 E7.82048
G1 X158.798 Y158.862 E7.87514
G0 F7200 X159.158 Y159.244
G1 F3600 X159.677 Y158.754 E7.89851
G1 X160.178 Y158.461 E7.91752
G1 X160.646 Y158.034 E7.93826
G1 X161.957 Y157.396 E7.98599
G1 X162.709 Y157.128 E8.01213
G1 X163.286 Y157.069 E8.03112
G1 X163.871 Y156.874 E8.05131
G1 X165.196 Y156.818 E8.09473
G1 X166.095 Y156.876 E8.12422
G1 X166.668 Y157.059 E8.14392
G1 X167.294 Y157.119 E8.16451
G1 X168.709 Y157.697 E8.21455
G1 X169.347 Y158.048 E8.23839
G1 X169.786 Y158.438 E8.25762
G1 X170.325 Y158.743 E8.27789
G1 X171.381 Y159.843 E8.32782
G1 X171.824 Y160.424 E8.35174
G1 X172.06 Y160.955 E8.37076
G1 X172.426 Y161.45 E8.39092
G1 X172.907 Y162.758 E8.43655
G1 X173.105 Y163.56 E8.46359
G1 X173.118 Y164.228 E8.48547
G1 X173.243 Y164.886 E8.5074
G1 X173.146 Y166.234 E8.55165
G1 X173.002 Y167.017 E8.57771
G1 X172.765 Y167.557 E8.59702
G1 X172.642 Y168.162 E8.61723
G1 X172.024 Y169.341 E8.66082
G1 X171.517 Y170.097 E8.69062
G1 X171.053 Y170.515 E8.71106
G1 X170.631 Y171.07 E8.73389
G1 X169.619 Y171.866 E8.77605
G1 X168.889 Y172.318 E8.80416
G1 X168.336 Y172.498 E8.8232
G1 X167.794 Y172.817 E8.84379
G1 X166.307 Y173.18 E8.8939
G1 X165.603 Y173.268 E8.91713
G1 X165.027 Y173.21 E8.93609
G1 X164.397 Y173.28 E8.95684
G1 X162.883 Y173.007 E9.00721
G1 X162.187 Y172.783 E9.03115
G1 X161.696 Y172.513 E9.04949
G1 X161.103 Y172.326 E9.06985
G1 X159.939 Y171.545 E9.11574
G1 X159.3 Y170.991 E9.14343
G1 X158.931 Y170.506 E9.16338
G1 X158.433 Y170.035 E9.18583
G1 X157.679 Y168.824 E9.23253
G1 X157.365 Y168.158 E9.25664
G1 X157.238 Y167.564 E9.27653
G1 X156.973 Y166.937 E9.29881
G1 X156.786 Y165.649 E9.34143
G1 X156.757 Y164.805 E9.36907
G1 X156.879 Y164.216 E9.38877
G1 X156.873 Y163.59 E9.40926
G1 X157.232 Y162.311 E9.45276
G1 X157.58 Y161.453 E9.48307
G1 X157.928 Y160.976 E9.5024
G1 X158.172 Y160.414 E9.52246
G1 X159.158 Y159.244 E9.57256
G0 F7200 X159.518 Y159.626
G1 F3600 X159.994 Y159.177 E9.59398
G1 X160.493 Y158.885 E9.61291
G1 X160.944 Y158.473 E9.63291
G1 X162.187 Y157.868 E9.67817
G1 X162.825 Y157.644 E9.70031
G1 X163.398 Y157.585 E9.71917
G1 X163.965 Y157.396 E9.73874
G1 X165.218 Y157.343 E9.7798
G1 X165.998 Y157.396 E9.80539
G1 X166.564 Y157.577 E9.82485
G1 X167.17 Y157.635 E9.84478
G1 X168.456 Y158.157 E9.89022
G1 X169.04 Y158.478 E9.91204
G1 X169.478 Y158.867 E9.93122
G1 X170.001 Y159.163 E9.95089
G1 X170.963 Y160.161 E9.99628
G1 X171.369 Y160.694 E10.01822
G1 X171.603 Y161.22 E10.03706
G1 X171.959 Y161.701 E10.05666
G1 X172.414 Y162.939 E10.09984
G1 X172.581 Y163.628 E10.12305
G1 X172.594 Y164.283 E10.1445
G1 X172.714 Y164.916 E10.16559
G1 X172.622 Y166.196 E10.20761
G1 X172.497 Y166.861 E10.22976
G1 X172.263 Y167.394 E10.24882
G1 X172.143 Y167.983 E10.2685
G1 X171.559 Y169.097 E10.30968
G1 X171.116 Y169.752 E10.33557
G1 X170.663 Y170.16 E10.35553
G1 X170.254 Y170.698 E10.37766
G1 X169.294 Y171.453 E10.41765
G1 X168.666 Y171.839 E10.44178
G1 X168.12 Y172.016 E10.46057
G1 X167.597 Y172.324 E10.48044
G1 X166.242 Y172.659 E10.52614
G1 X165.595 Y172.74 E10.54749
G1 X165.022 Y172.682 E10.56635
G1 X164.415 Y172.75 E10.58635
G1 X163.044 Y172.507 E10.63193
G1 X162.348 Y172.283 E10.65587
G1 X161.91 Y172.03 E10.67243
G1 X161.333 Y171.848 E10.69224
G1 X160.232 Y171.109 E10.73565
G1 X159.685 Y170.63 E10.75946
G1 X159.325 Y170.156 E10.77895
G1 X158.844 Y169.701 E10.80062
G1 X158.154 Y168.6 E10.84317
G1 X157.865 Y167.987 E10.86535
G1 X157.74 Y167.403 E10.88491
G1 X157.483 Y166.795 E10.90652
G1 X157.306 Y165.574 E10.94691
G1 X157.284 Y164.849 E10.97066
G1 X157.405 Y164.267 E10.99012
G1 X157.399 Y163.662 E11.00993
G1 X157.738 Y162.453 E11.05104
G1 X158.043 Y161.708 E11.0774
G1 X158.385 Y161.239 E11.0964
G1 X158.622 Y160.694 E11.11586
G1 X159.518 Y159.626 E11.1615
G0 F7200 X159.878 Y160.008
G1 F3600 X160.311 Y159.6 E11.18098
G1 X160.808 Y159.309 E11.19984
G1 X161.244 Y158.911 E11.21917
G1 X162.361 Y158.363 E11.2599
G1 X162.94 Y158.16 E11.27999
G1 X163.51 Y158.101 E11.29875
G1 X164.059 Y157.918 E11.3177
G1 X165.24 Y157.868 E11.3564
G1 X165.9 Y157.916 E11.37806
G1 X166.46 Y158.095 E11.39731
G1 X167.045 Y158.151 E11.41655
G1 X168.203 Y158.617 E11.45742
G1 X168.733 Y158.908 E11.47722
G1 X169.17 Y159.296 E11.49635
G1 X169.675 Y159.582 E11.51535
G1 X170.545 Y160.479 E11.55627
G1 X170.913 Y160.962 E11.57615
G1 X171.145 Y161.483 E11.59482
G1 X171.492 Y161.952 E11.61392
G1 X171.904 Y163.063 E11.65271
G1 X172.057 Y163.695 E11.674
G1 X172.07 Y164.337 E11.69503
G1 X172.185 Y164.946 E11.71532
G1 X172.106 Y166.099 E11.75316
G1 X171.993 Y166.702 E11.77324
G1 X171.761 Y167.229 E11.7921
G1 X171.644 Y167.804 E11.81131
G1 X171.124 Y168.803 E11.84818
G1 X170.716 Y169.406 E11.87202
G1 X170.273 Y169.805 E11.89154
G1 X169.877 Y170.326 E11.91296
G1 X168.969 Y171.04 E11.95078
G1 X168.445 Y171.359 E11.97087
G1 X167.9 Y171.536 E11.98963
G1 X167.395 Y171.833 E12.00881
G1 X166.177 Y172.138 E12.04992
G1 X165.587 Y172.212 E12.06939
G1 X165.016 Y172.154 E12.08818
G1 X164.431 Y172.22 E12.10745
G1 X163.136 Y171.99 E12.15051
G1 X162.564 Y171.801 E12.17024
G1 X162.121 Y171.546 E12.18697
G1 X161.563 Y171.37 E12.20613
G1 X160.525 Y170.673 E12.24707
G1 X160.033 Y170.237 E12.26859
G1 X159.72 Y169.807 E12.286
G1 X159.253 Y169.366 E12.30703
G1 X158.629 Y168.376 E12.34535
G1 X158.365 Y167.816 E12.36562
G1 X158.243 Y167.244 E12.38476
G1 X157.992 Y166.652 E12.40582
G1 X157.831 Y165.558 E12.44202
G1 X157.811 Y164.894 E12.46377
G1 X157.931 Y164.319 E12.483
G1 X157.925 Y163.734 E12.50216
G1 X158.244 Y162.595 E12.54088
G1 X158.503 Y161.968 E12.56309
G1 X158.841 Y161.505 E12.58186
G1 X159.072 Y160.974 E12.60082
G1 X159.878 Y160.008 E12.64201
G0 F7200 X160.238 Y160.39
G1 F3600 X160.628 Y160.023 E12.65954
G1 X161.123 Y159.733 E12.67833
G1 X161.542 Y159.35 E12.69691
G1 X162.534 Y158.859 E12.73315
G1 X163.057 Y158.676 E12.75129
G1 X163.622 Y158.617 E12.76989
G1 X164.156 Y158.439 E12.78832
G1 X165.202 Y158.392 E12.8226
G1 X165.801 Y158.436 E12.84227
G1 X166.356 Y158.613 E12.86134
G1 X166.92 Y158.667 E12.87989
G1 X167.95 Y159.077 E12.91619
G1 X168.48 Y159.368 E12.93598
G1 X168.857 Y159.723 E12.95294
G1 X169.35 Y160.002 E12.97148
G1 X170.168 Y160.845 E13.00994
G1 X170.459 Y161.233 E13.02582
G1 X170.691 Y161.753 E13.04446
G1 X171.026 Y162.205 E13.06288
G1 X171.394 Y163.187 E13.09722
G1 X171.536 Y163.773 E13.11696
G1 X171.563 Y164.171 E13.13002
G1 X171.537 Y164.359 E13.13623
G1 X171.661 Y164.912 E13.15479
G1 X171.59 Y166.002 E13.19055
G1 X171.488 Y166.547 E13.2087
G1 X171.258 Y167.069 E13.22738
G1 X171.145 Y167.625 E13.24596
G1 X170.658 Y168.561 E13.2805
G1 X170.318 Y169.058 E13.30022
G1 X169.885 Y169.448 E13.31929
G1 X169.502 Y169.953 E13.34005
G1 X168.696 Y170.591 E13.3737
G1 X168.222 Y170.879 E13.39186
G1 X167.682 Y171.055 E13.41046
G1 X167.193 Y171.342 E13.42902
G1 X166.111 Y171.617 E13.46557
G1 X165.579 Y171.684 E13.48313
G1 X165.01 Y171.626 E13.50185
G1 X164.446 Y171.69 E13.52044
G1 X163.29 Y171.488 E13.55886
G1 X162.826 Y171.346 E13.57474
G1 X162.332 Y171.062 E13.5934
G1 X161.793 Y170.892 E13.6119
G1 X160.818 Y170.237 E13.65036
G1 X160.384 Y169.847 E13.66946
G1 X160.117 Y169.457 E13.68494
G1 X159.696 Y169.085 E13.70333
G1 X159.104 Y168.152 E13.73951
G1 X158.866 Y167.648 E13.75776
G1 X158.746 Y167.082 E13.7767
G1 X158.511 Y166.574 E13.79503
G1 X158.356 Y165.542 E13.82919
G1 X158.338 Y164.939 E13.84895
G1 X158.457 Y164.37 E13.86798
G1 X158.451 Y163.805 E13.88648
G1 X158.75 Y162.737 E13.92279
G1 X158.964 Y162.226 E13.94093
G1 X159.298 Y161.768 E13.95949
G1 X159.522 Y161.253 E13.97787
G1 X160.238 Y160.39 E14.01459
G1 F2700 E13.51459
G0 F7200 X160.958 Y161.154
M104 S200
G1 F2700 E14.01459
G1 F3600 X161.348 Y160.787 E14.03212
G1 X161.495 Y160.704 E14.03765
G1 X161.731 Y160.728 E14.04541
G1 X161.894 Y160.608 E14.05204
G1 X161.943 Y160.378 E14.05974
G1 X162.082 Y160.255 E14.06582
G1 X162.937 Y159.827 E14.09712
G1 X163.397 Y159.67 E14.11303
G1 X163.565 Y159.655 E14.11856
G1 X163.771 Y159.772 E14.12631
G1 X163.97 Y159.728 E14.13299
G1 X164.109 Y159.539 E14.14067
G1 X164.285 Y159.483 E14.14671
